!!!COM: Scriabin, Alexander
!!!OTL@@FR: Allegro appassionato
!!!OTL@@EN: Allegro appassionato
!!!OPS: 4
!!!ODT: 1888–1892
!!!AGN: Concert work
**kern	**kern	**dynam
*staff2	*staff1	*staff1/2
*Ipiano	*Ipiano	*
*clefF4	*clefG2	*
*k[b-e-a-d-g-c-]	*k[b-e-a-d-g-c-]	*
*e-:	*e-:	*
*kcancel	*kcancel	*
*M3/4	*M3/4	*
=1	=1	=1
*^	*^	*
!	!	!	!	!LO:HP:b=2
4EE-	12EE-L	12r	12r	<
.	12E-	6B-	12B-L 12f	(
.	12BB-J	.	12G-J 12e- 12g-	(
4GG-	12GG-L	12r	12r	(
.	12G-	6e-	12e-L 12an	(
.	12E-J	.	12B-J 12e- 12g- 12b-	(
4BB-	12BB-L	12r	12r	(
.	12B-	6g-	12g-L 12ddn	(
.	12G-J	.	12e-J 12b- 12ee-	[
=2	=2	=2	=2	=2
*	*Xtuplet	*	*Xtuplet	*
8.C-L	12C-L	12r	12r	.
.	12c-	6g-	12g-L 12ddn	.
.	12G-J	.	12e-J 12an 12ee-	.
16GG-Jk	.	.	.	.
4GG-	12GG-L	12r	12r	.
.	12G-	6e-	12e-L 12a-X	.
.	12E-J	.	12AnJ 12g- 12an	.
4r	12GG-L	12r	12r	.
.	12G-	6e-	12e-L 12a-X	.
.	12E-J	.	12AnJ 12g- 12an	.
=3	=3	=3	=3	=3
8.BB-L	12BB-L	12r	12r	.
.	12B-	6g-	12g-L 12ddn	.
.	12G-J	.	12e-J 12b- 12ee-	.
16GG-Jk	.	.	.	.
4GG-	12GG-L	12r	12r	.
.	12G-	6e-	12e-L 12an	.
.	12E-J	.	12B-J 12g- 12b-	.
4r	12GG-L	12r	12r	.
.	12G-	6e-	12e-L 12a	.
.	12E-J	.	12B-J 12g- 12b-	.
!!LO:LB:g=original
=4	=4	=4	=4	=4
8.AAL	12AAnL	12r	12r	.
.	12c-	6g-	12g-L 12ddn	.
.	12G-J	.	12e-J 12cc- 12ee-	.
16GG-Jk	.	.	.	.
4GG-	12GG-L	12r	12r	.
.	12An	6e-	12e-L 12b-	.
.	12E-J	.	12c-J 12g- 12cc-	.
4r	12GG-L	12r	12r	.
.	12A	6e-	12e-L 12b-	.
.	12E-J	.	12c-J 12g- 12cc-	.
=5	=5	=5	=5	=5
!	!	!	!	!LO:HP:b=2
4BB-	12BB-L	12r	12r	<
.	12B-	6g-	12g-L 12ddn	(
.	12G-J	.	12e-J 12b- 12ee-	(
4GG-	12GG-L	12r	12r	(
.	12G-	6e-	12e-L 12an	(
.	12E-J	.	12B-J 12g- 12b-	(
4EE-	12EE-L	12r	12r	(
.	12E-	6B-	12B-L 12f	(
.	12BB-J	.	12G-J 12e- 12g-	[
=6	=6	=6	=6	=6
8.EE-L	12EE-L	12r	12r	.
.	12E-	6A	12AnL 12f	.
.	12C-J	.	12G-J 12e- 12g-	.
16CC-Jk	.	.	.	.
4CC-	12CC-L	12r	12r	.
.	12C-	6G-	12G-L 12dn	.
.	12GG-J	.	12E-J 12An 12e-	.
4r	12CC-L	12r	12r	.
.	12C-	6G-	12G-L 12d	.
.	12GG-J	.	12E-J 12A 12e-	.
=7	=7	=7	=7	=7
8.EE-L	12EE-L	12r	12r	.
.	12E-	6B-	12B-L 12f	.
.	12BB-J	.	12G-J 12e- 12g-	.
16BBB-Jk	.	.	.	.
4BBB-	12BBB-L	12r	12r	.
.	12BB-	6G-	12G-L 12dn	.
.	12GG-J	.	12E-J 12B- 12e-	.
4r	12BBB-L	12r	12r	.
.	12BB-	6G-	12G-L 12d	.
.	12GG-J	.	12E-J 12B- 12e-	.
!!LO:LB:g=original
=8	=8	=8	=8	=8
8.EE-L	12EE-L	12r	12r	.
.	12E-	6c-	12c-L 12f	.
.	12AA-J	.	12G-J 12e- 12g-	.
16AAA-Jk	.	.	.	.
4AAA-	12AAA-L	12r	12r	.
.	12C-	6G-	12G-L 12dn	.
.	12EE-J	.	12E-J 12c- 12e-	.
4AAA-	12AAA-L	12r	12r	.
.	12C-	6F	12FL 12d-X	.
.	12EE-J	.	12DnJ 12c- 12dn	.
=9	=9	=9	=9	=9
!	!	!	!	!LO:HP:b=2
4GGG-	12GGG-L	12r	12r	<
.	12BB-	6B-	12B-L 12dn	(
.	12EE-J	.	12E-J 12e-	(
4AAA-	12AAA-L	12r	12r	(
.	12C-	6c-	12c-L 12f-X	(
.	12EE-J	.	12FJ 12e- 12fn	(
4BBB-	12BBB-L	12r	12r	(
.	12Dn	6d	12dnL 12f	(
.	12GG-J	.	12G-J 12B- 12g-	[
=10	=10	=10	=10	=10
8.CC-L	12CC-L	12r	12r	.
.	12E-	6e-	12e-L 12f	.
.	12GG-J	.	12G-J 12c- 12g-	.
16FFFJk	.	.	.	.
2FFF	12FFFL	12r	12r	.
.	12E-	6c-	12c-L 12gn	.
.	12C-J	.	12A-J 12e- 12a-	.
.	12FFL	12r	12r	.
.	12A-	6e-	12e-L 12b-	.
.	12E-J	.	12c-J 12a- 12cc-	.
=11	=11	=11	=11	=11
4FF	12FFL	12ra	12raa	.
.	12A-	[6cc-	12ddnL	.
.	12E-J	.	12e-J 12ee-	.
4GG-	12GG-L	12cc-]	12raa	.
.	12B-	[6b-	12b-L 12dd	.
.	12E-J	.	12e-J 12ee-	.
4AA-	12AA-L	12b-]	12raa	.
.	12c-	[6a-	12a-L 12dd	.
.	12E-J	.	12e-J 12ee-	.
!!LO:LB:g=original
=12	=12	=12	=12	=12
2.AA	12AAnL	12a-]	12r	.
.	12c-	6g-	12g-L 12ddn	.
.	12E-J	.	12e-J 12cc- 12ee-	.
.	12AAL	12ra	12raa	.
.	12c-	6cc-	12fL	.
.	12E-J	.	12g-J 12ff	.
.	12AAL	12ra	12raa	.
.	12c-	6g-	12g-L 12dd	.
.	12E-J	.	12e-J 12cc- 12ee-	.
=13	=13	=13	=13	=13
!	!	!	!	!LO:HP:b=2
4BB-	12BB-L	12r	12r	<
.	12B-	6a-	12a-L 12dd-	(
.	12FJ	.	12dnJ 12ddn	(
4BB-	12BB-L	12r	12r	(
.	12c-	6a	12anL 12dd	(
.	12G-J	.	12e-J 12ee-	(
4G-	12G-L	12r	12r	(
.	12g-	6ee-	12ee-L 12bb-	(
.	12c-J	.	12anJ 12ccc-	[
=14	=14	=14	=14	=14
!	!	!	!	!LO:HP:b=2
4G-	12G-L	12r	12r	>
.	12g-	6ee-	12ee-L 12bb-	)
.	12c-J	.	12anJ 12ccc-	)
4F	12FL	12r	12r	)
.	12f	6dd	12ddnL 12aan	)
.	12B-J	.	12a-XJ 12bb-	)
4F	12FL	12r	12r	)
.	12B-	6a-	12a-L 12dd-X	)
.	12FJ	.	12dnJ 12ddn	]
=15	=15	=15	=15	=15
4F	12FL	12r	12r	.
.	12B-	6g#	12g#XL 12cc#X	.
.	12FJ	.	12dnJ 12ddn	>
4E	12EnL	12r	12r	.
.	12An	6an	12b#XL	.
.	12EJ	.	12c#XJ 12cc#	.
4E-	12E-XL	12r	12r	.
.	12A-X	6f#	12f#XL 12bn	.
.	12E-J	.	12cnJ 12ccn	.
!!LO:LB:g=original
=16	=16	=16	=16	=16
4D	12DnL	12r	12r	.
.	12Gn	6gn	12a#XL	.
.	12DJ	.	12BnJ 12bn	.
4D	12DL	12r	12r	.
.	12A-	6f	12fL 12b-X	.
.	12DJ	.	12c-XJ 12cc-X	.
4D	12DL	12r	12r	.
.	12A-	6f	12fL 12an	.
.	12DJ	.	12B-XJ 12b-	.
=17	=17	=17	=17	=17
!	!	!	!	!LO:HP:b=2
4EE-	12EE-L	12r	12r	<
.	12E-	6B-	12B-L 12f	(
.	12BB-J	.	12G-J 12e- 12g-	(
4GG-	12GG-L	12r	12r	(
.	12G-	6e-	12e-L 12an	(
.	12E-J	.	12B-J 12g- 12b-	(
4BB-	12BB-L	12r	12r	(
.	12B-	6g-	12g-L 12ddn	(
.	12G-J	.	12e-J 12b- 12ee-	[
=18	=18	=18	=18	=18
!	!	!	!	!LO:HP:b=2
8.C-L	12C-L	12r	12r	>
.	12c-	6g-	12g-L 12ddn	)
.	12G-J	.	12e-J 12an 12ee-	)
16GG-Jk	.	.	.	]
2GG-	12GG-L	12r	12r	.
.	12G-	6e-	12e-L 12a-X	.
.	12E-J	.	12AnJ 12g- 12an	.
.	12GG-L	12r	12r	.
.	12G-	6e-	12e-L 12a-X	.
.	12E-J	.	12AnJ 12g- 12an	.
=19	=19	=19	=19	=19
!	!	!	!	!LO:HP:b=2
8.BB-L	12BB-L	12r	12r	>
.	12B-	6g-	12g-L 12ddn	)
.	12G-J	.	12e-J 12b- 12ee-	)
16GG-Jk	.	.	.	]
2GG-	12GG-L	12r	12r	.
.	12G-	6e-	12e-L 12an	.
.	12E-J	.	12B-J 12g- 12b-	.
.	12GG-L	12r	12r	.
.	12G-	6e-	12e-L 12a	.
.	12E-J	.	12B-J 12g- 12b-	.
!!LO:LB:g=original
=20	=20	=20	=20	=20
8.AAL	12AAnL	12r	12r	.
.	12c-	6g-	12g-L 12ddn	.
.	12G-J	.	12e-J 12cc- 12ee-	.
16GG-Jk	.	.	.	.
2GG-	12GG-L	12r	12r	.
.	12G-	6e-	12e-L 12b-	.
.	12E-J	.	12c-J 12g- 12cc-	.
.	12GG-L	12r	12r	.
.	12G-	6e-	12e-L 12b-	.
.	12E-J	.	12c-J 12g- 12cc-	.
=21	=21	=21	=21	=21
4BB-	12BB-L	12r	12r	.
.	12B-	6g-	12g-L 12ddn	.
.	12G-J	.	12e-J 12b- 12ee-	.
4GG-	12GG-L	12r	12r	.
.	12G-	6e-	12e-L 12an	.
.	12E-J	.	12B-J 12g- 12b-	.
4BB-	12BB-L	12r	12r	.
.	12B-	6g-	12g-L 12ddn	.
.	12G-J	.	12e-J 12b- 12ee-	.
=22	=22	=22	=22	=22
8.C-L	12C-L	12r	12r	.
.	12c-	6g-	12g-L 12ddn	<
.	12G-J	.	12e-J 12an 12ee-	.
16CnJk	.	.	.	.
2C	12CL	12r	12r	.
.	12cn	[6e-	12e-L 12gn	.
.	12G-J	.	12c-J 12g-X 12a-X	.
.	12CL	12e-L]	12r	.
.	12e-	12a-	[6a-	.
.	12A-J	12g-J	.	.
=23	=23	=23	=23	=23
8.D-L	12D-L	[4f	12a-L]	.
.	12d-	.	12dd- 12ff	.
.	12A-J	.	12cc-J	.
16DnJk	.	.	.	.
2D	12DL	12f]	12r	.
.	12dn	[6f	12fL 12an	.
.	12A-J	.	12B-J 12a-X 12b-	.
.	12DL	12fL]	12r	.
.	12f	12b-	[6b-	.
.	12B-J	12a-J	.	.
!!LO:LB:g=original
=24	=24	=24	=24	=24
4E-	12E-L	6g-	12g-L 12b-]	.
.	12e-	.	12gg-	.
.	12B-J	12ee-	12ee-J	.
2E	12EnL	6dd-	12r	.
.	12g-	.	12aanL	.
.	12d-J	12b-	12b-J 12gg- 12bb-	.
.	12EL	12ra	12raa	.
.	12g-	6dd-	12dd-L 12aa	.
.	12d-J	.	12b-J 12gg- 12bb-	.
=25	=25	=25	=25	=25
4F	12FL	12r	12r	f
.	12f	6dd-	12dd-L 12aan	.
.	12d-J	.	12b-J 12ff 12bb-	.
4D-	12D-L	12r	12r	.
.	12d-	6b-	12b-L 12een	.
.	12B-J	.	12fJ 12dd- 12ff	.
4BB-	12BB-L	12r	12r	.
.	12B-	6f	12fL 12ccn	.
.	12FJ	.	12d-J 12b- 12dd-	.
=26	=26	=26	=26	=26
8.D-L	12D-L	4f	12fL	.
.	12d-	.	12dd- 12ff	.
.	12A-J	.	12cc-J	.
16AA-Jk	.	.	.	.
2AA-	12AA-L	12r	12r	.
.	12A-	6f	12fL 12b-	.
.	12D-J	.	12c-J 12a- 12cc-	.
.	12AA-L	12r	12r	.
.	12A-	6f	12fL 12b-	.
.	12D-J	.	12BnJ 12a- 12bn	.
=27	=27	=27	=27	=27
4C	12CnL	12r	12r	>
.	12cn	6a-	12a-L 12een	.
.	12A-J	.	12fJ 12ccn 12ff	.
4AA-	12AA-L	12r	12r	.
.	12A-	6f	12fL 12bn	.
.	12FJ	.	12cnJ 12a- 12cc	.
4FF	12FFL	12r	12r	.
.	12F	6c	12cL 12gn	.
.	12CJ	.	12A-J 12f 12a-	.
!!LO:LB:g=original
=28	=28	=28	=28	=28
8.AA-L	12AA-L	4c	12cnL	.
.	12A-	.	12a- 12ccn	.
.	12E-J	.	12g-J	.
16EE-Jk	.	.	.	.
2EE-	12EE-L	12r	12r	.
.	12E-	6c	12cL 12f	.
.	12AA-J	.	12G-J 12e- 12g-	.
.	12EE-L	12r	12r	.
.	12E-	6c	12cL 12f	.
.	12AA-J	.	12G-J 12e- 12g-	.
=29	=29	=29	=29	=29
8.GG-L	12GG-L	12r	12r	pp
.	12G-	6d-	12d-L 12a-	.
.	12D-J	.	12B--J 12g- 12b--	.
16DD-Jk	.	.	.	.
2DD-	12DD-L	12r	12r	.
.	12D-	6B--	12B--L 12f	.
.	12BB--J	.	12G-J 12d- 12g-	.
.	12DD-L	12r	12r	.
.	12D-	6B--	12B--L 12f	.
.	12BB--J	.	12G-J 12d- 12g-	.
=30	=30	=30	=30	=30
4CC	12CCnL	12r	12r	.
.	12E-	6A	12AnL 12f	.
.	12AAnJ	.	12G-J 12e- 12g-	.
4ryy	12CCL	12r	12r	.
.	12G-	6e-	12e-L 12a-X	.
.	12AAJ	.	12AnJ 12g- 12an	.
4ryy	12CCL	12r	12r	.
.	12G-	6g-	12g-L 12ddn	.
.	12AAJ	.	12e-J 12a 12ee-	.
=31	=31	=31	=31	=31
4C	12CnL	12r	12r	.
.	12e-	6a	12anL 12ff	.
.	12AnJ	.	12g-J 12ee- 12gg-	.
4ryy	12C/L	12r	12r	.
.	12g-	6ee-	12ee-L 12aa-X	.
.	12AJ	.	12anJ 12gg- 12aan	.
4ryy	12C/L	12r	12r	.
.	12g-	6gg-	12gg-L 12dddn	.
.	12AJ	.	12ee-J 12aa 12eee-	.
*v	*v	*	*	*
!!LO:LB:g=original
=32	=32	=32	=32
[8qD-	.	.	.
4D-] 4B- 4d- 4g-	4b-	4dd- 4gg- 4ddd-	.
*clefG2	*	*	*
!	!	!	!LO:HP:b=2
4cn	12r	12r	<
.	6b-	12b-L 12ff	(
.	.	12g-J 12gg-	(
4d-	12r	12r	(
.	6b-	12b-L 12ff	(
.	.	12g-J 12gg-	[
=33	=33	=33	=33
!	!	!	!LO:HP:b=2
4f	12r	12r	>
.	6gg-	12aanL	)
.	.	12b-J 12bb-	)
4e-	12r	12r	)
.	6gg-	12aaL	)
.	.	12b-J 12bb-	)
4d-	4ryy	12r	)
.	.	12gg-L 12ddd-/	)
.	.	12b-J	]
*	*v	*v	*
*clefF4	*	*
=34	=34	=34
*^	*	*
[2.D- [2.A- [2.g-	2.c-	4ddd-	.
.	.	4eee-	.
.	.	4ddd-	.
=35	=35	=35	=35
*tuplet	*	*tuplet	*
2.D-_ 2.A-_ 2.g-_	2.c-	16%3ccc-	.
.	.	16%3aa-	.
.	.	16%3gg-	.
.	.	16%3ee-	.
*v	*v	*	*
=36||	=36||	=36||
*M6/8	*M6/8	*
*^	*	*
4D-] 4A-] 4g-]	4c-	8dd-L	.
.	.	8ccn	.
8r	8r	8dd-J	.
4r	4r	8ddnL	.
.	.	8ee-	.
8r	8r	8ff-XJ	.
*	*clefG2	*	*
=37	=37	=37	=37
*	*	*^	*
4.d-	16%3b-L	2.cc-	8ffnL	<
.	.	.	8ee-	(
.	16%3a-J	.	.	(
.	.	.	8ffJ	(
8e-L	4.g-	.	8gg-L	(
8e--	.	.	8aa-	(
8A-J	.	.	8ccc-J	[
!!LO:LB:g=original
=38	=38	=38	=38	=38
8d-	8f	2.cc- 2.dd-	4.bb-	>
8ryy	8D-L	.	.	)
8ryy	8A-J	.	.	)
4.ryy	8e-L	.	4.aa-	)
.	8g-	.	.	)
.	8fJ	.	.	]
=39	=39	=39	=39	=39
4.d-	16%3b-L	2.cc-	8ffL	<
.	.	.	8ee-	(
.	16%3a-J	.	.	(
.	.	.	8ffJ	(
8e-L	4.g-	.	32%3gg-L	(
.	.	.	32%3aa-	(
8e--	.	.	.	(
.	.	.	32%3ddd-	(
8A-J	.	.	.	(
.	.	.	32%3ccc-J	[
=40	=40	=40	=40	=40
8d-	8f	4.cc- 4.dd-	4bb-	>
8ryy	8D-L	.	.	)
8ryy	8A-J	.	8aa-	)
4.ryy	8e-L	4.cc-	4.dd-	)
.	8g-	.	.	)
.	8fJ	.	.	]
*	*clefF4	*	*	*
=41	=41	=41	=41	=41
2.G-	4.d-	2.b-	8dd-L	.
.	.	.	8ccn	.
.	.	.	8dd-J	.
.	[4.cn	.	8ddnL	.
.	.	.	8ee-	.
.	.	.	8eenJ	.
=42	=42	=42	=42	=42
*	*	*^	*	*
2.F	8cL]	2.an\	4ff	[4.ff	.
.	8Bn	.	.	.	.
.	8cnJ	.	8een	.	.
.	8g-L	.	8ee-XL	4.ff_	.
.	8f	.	8dd-	.	.
.	8e-J	.	8ccnJ	.	.
*	*	*v	*v	*	*
=43	=43	=43	=43	=43
4.B-	4.d-	4.b-	8ffL]	.
.	.	.	8een	.
.	.	.	8ffJ	.
4B--	4.e-	4.dd-	8gg-L	.
.	.	.	8ggn	.
[8A-	.	.	[8aa-J	.
!!LO:LB:g=original
=44	=44	=44	=44	=44
*	*	*^	*	*
4.A-]	4a-	4.ccn\	8r	4.aa-_	.
.	.	.	8ff/L	.	.
.	[8g-	.	8ee-J	.	.
4.d-	8g-L]	4.cc-X\	8ee-/	4aa-]	.
.	8f	.	4dd-/	.	.
.	8g-J	.	.	8gg-	.
*	*	*	*v	*v	*
*	*	*v	*v	*
*	*clefG2	*	*
=45	=45	=45	=45
*	*	*^	*
4.d-	16%3b-L	2.cc-	8ffL	<
.	.	.	8ee-	(
.	16%3a-J	.	.	(
.	.	.	8ffJ	(
8e-L	4.g-	.	8gg-L	(
8e--	.	.	8aa-	(
8A-J	.	.	8ccc-J	[
=46	=46	=46	=46	=46
8d-	8f	2.cc- 2.dd-	4.bb-	>
8ryy	8D-L	.	.	)
8ryy	8A-J	.	.	)
4.ryy	8e-L	.	4.aa-	)
.	8g-	.	.	)
.	8fJ	.	.	]
=47	=47	=47	=47	=47
4.d-	16%3b-L	2.cc-	8ffL	<
.	.	.	8ee-	(
.	16%3a-J	.	.	(
.	.	.	8ffJ	(
8e-L	4.g-	.	40%3gg-L	(
.	.	.	40%3aa-	(
8e--	.	.	.	(
.	.	.	40%3bb-	(
.	.	.	40%3ddd-	(
8A-J	.	.	.	(
.	.	.	40%3ccc-J	[
=48	=48	=48	=48	=48
8d-	8f	4.cc- 4.dd-	4bb-	>
8ryy	8D-L	.	.	)
8ryy	8A-J	.	8aa-	)
4.ryy	8e-L	4.cc-	4.dd-	)
.	8g-	.	.	)
.	8fJ	.	.	]
*	*clefF4	*	*	*
!!LO:LB:g=original
=49	=49	=49	=49	=49
4.G-	16%3d-L	4.b-	8dd-L	.
.	.	.	8ccn	.
.	16%3d-J	.	.	.
.	.	.	8dd-J	.
16%3r	[4.d-	4.b--	8ff-XL	.
.	.	.	8ee-	.
16%3Gn 16%3en	.	.	.	.
.	.	.	8dd-J	.
=50	=50	=50	=50	=50
8A- 8f	8d-]	4.a-	[4.dd-	.
*v	*v	*	*	*
8AA-L	.	.	.
8FJ	.	.	.
8cnL	4r	4.dd-]	.
8d-	.	.	.
8a-J	8r	.	.
=51	=51	=51	=51
4.A- [4.d- 4.f	4.a-	40%3dd-L	.
.	.	40%3ee-	.
.	.	40%3dd-	.
.	.	40%3ccn	.
.	.	40%3dd-J	.
4.B-- 4.d-_ [4.f-X	4.a--	8ff-XL	.
.	.	8ee-	.
.	.	8dd-J	.
=52	=52	=52	=52
8B-X 8d-] 8f-]	4g-	8dd-L	.
8BB-L	.	8gg-	.
8G-J	8rf	8ffJ	.
8g-L	4rf	8ff-XL	.
8G-	.	8ccn	.
8f-XJ	8rf	8dd-J	.
=53	=53	=53	=53
*^	*	*	*
4.C-	2.G- 2.c-	2.e- 2.cc-	8ee-L	<
.	.	.	8ddn	(
.	.	.	8ee-J	(
4.BB--	.	.	8ffnL	(
.	.	.	8gg-	(
.	.	.	8ggnJ	[
!!LO:LB:g=original
=54	=54	=54	=54	=54
[4.AA-	8rc	8r	4.aa-	>
.	8cnL	[8f-XL	.	)
.	8G-J	8f-J] 8b-	.	)
4.AA-]	8DnL	8r	4.gg-	)
.	8E-	[8e-L	.	]
.	8g-J	8e-J] 8ccn	.	.
=55	=55	=55	=55	=55
4.D-	2.A- 2.d-	2.f-X 2.dd-	8ff-XL	<
.	.	.	8ee-	(
.	.	.	8ff-J	(
4.C-X	.	.	8gg-L	(
.	.	.	8ggn	(
.	.	.	8aa-J	[
=56	=56	=56	=56	=56
[4.BB-	8rc	8r	4.bb-	>
.	8dnL	[8g-L	.	)
.	8A-J	8g-J] 8ccn	.	)
4.BB-]	8EnL	8r	4.aa-	)
.	8F	[8fL	.	]
.	8a-J	8fJ] 8ddn	.	.
*v	*v	*	*	*
=57	=57	=57	=57
32%3E-L 32%3B- 32%3e-	4g- 4ee-	8gg-L	.
32%3B-	.	.	.
.	.	8ff	.
32%3f	.	.	.
.	8rf	8ee-J	.
32%3g-J	.	.	.
8b-	4rf	8ddnL	<
8r	.	8ee-	.
8r	8rf	8ffJ	.
=58	=58	=58	=58
8E--L	4.ccn	8gg-L	.
8An	.	8ff	.
8g-J	.	8gg-J	.
8ccnL	4.gg-	8aa-L	.
8cnJ	.	8aan	.
8D- 8d-	.	[8bb-J	.
!!LO:LB:g=original
=59	=59	=59	=59
4B- 4g-	4.dd-	8bb-L]	.
.	.	8aan	.
8d->	.	8bb-J	.
8b->L 8gg->	4.bb-	8ccc-L	.
8d-	.	8ddd-	.
8D-J	.	[8fff-XJ	.
=60	=60	=60	=60
8B-L	4.ff-X	8fff-L]	.
8gn>	.	8eee-	.
8d->J	.	8ddd-J	.
8g>L 8ff>	4.dd-	4ccc-	.
8d->	.	.	.
8D-J	.	8bb-	.
=61	=61	=61	=61
4c- 4g-	4.ee--	8aa-L	.
.	.	8ggn	.
8e--	.	8aa-J	.
8cc->L 8ggn>	4.ee--	8bb-L	.
8e-->	.	8ccc-	.
8D-J	.	8eee--J	.
=62	=62	=62	=62
8A-L	4.cc-	8ddd-L	.
8f	.	8ccc-	.
8c-J	.	8bb-J	.
4f> 4cc->	4.dd-	4bb-	.
8D-	.	8aa-	.
=63	=63	=63	=63
8B-L	4.dd-	8gg-L	.
8dd->	.	8ff	.
8d-J	.	8gg-J	.
8g->L	4.ryy	8aa-L	.
8dd->	.	8bb-	.
8D-J	.	8gg-J	.
*	*v	*v	*
!!LO:LB:g=original
=64	=64	=64
8B--L	8ffL	.
8g->	8ee-	.
8cn>J	8ddnJ	.
8b-->L	8ee-L	.
8ee->/	8.aa-	.
8DD-J 8D-	.	.
.	16gg-Jk	.
=65	=65	=65
8A-L	4.gg-	.
8g->	.	.
8c->J	.	.
8g->L	8a-L	.
8cc->J	8ff	.
8r	8ee-J	.
=66	=66	=66
*	*^	*
4r	4ryy	8dd-/L	.
.	.	8e-	.
8r	8ryy	8cc-J	.
4.D-	4.c- 4.f	8b-L	.
.	.	8a-	.
.	.	8b-J	.
*	*v	*v	*
=67	=67	=67
*^	*	*
*	*^	*	*^
!	!	!	!	!LO:DY:a=2	!LO:DY:c
8GG-\	8G-L	8ryy	4.B- 4.g-	pp	p
*	*	*	*	*v	*v
4ryy	8F	[4d-	.	.
.	8E-J	.	.	.
4.ryy	4.D-	4.d-]	4a-	.
.	.	.	8B- 8g- 8b-	.
=68	=68	=68	=68	=68
8GG-\	8G-L	8ryy	4.a-	.
4ryy	8F	[4d-	.	.
.	8E-J	.	.	.
4.ryy	4.D-	4.d-]	4B- 4g- 4b-	.
.	.	.	8dd-	.
*	*v	*v	*	*
*v	*v	*	*
!!LO:LB:g=original
=69	=69	=69
16GG-LL	8c-L 8a-	.
16D-	.	.
16c-	8g-	.
16A-	.	.
16g-	8a-J	.
16cc-JJ	.	.
8c-	8ee-L	.
8r	8ff	pp
8r	8gg-J	.
=70	=70	=70
2.r	40%3bb-L	.
.	40%3aa-	.
.	40%3ee-	.
.	40%3a-	.
.	40%3b-J	.
.	4dd-	.
.	8cc-	.
=71	=71	=71
*^	*	*
*^	*	*	*
8GG-\	8G-	8ryy	4.c- 4.a-	.
4ryy	8F	[4d-	.	.
.	8E-J	.	.	.
4.ryy	4.D-	4.d-]	4b-/	.
.	.	.	8c- 8f 8cc-	.
=72	=72	=72	=72	=72
*	*	*	*^	*
8GG-\	8G-	8ryy	4ryy	4b-	.
4ryy	8F	[4d-	.	.	.
.	8E-J	.	8ryy	[8c- [8g-	.
4.ryy	4.D-	4.d-]	8ryy	8c-L] 8g-]	.
.	.	.	4c- 4f	8a-	.
.	.	.	.	8b-J	.
*	*v	*v	*	*	*
*v	*v	*	*	*
=73	=73	=73	=73
16GG-LL	8B- 8g-	8dd-L	.
16D-	.	.	.
16B-	8rd	8ccn	.
16g-	.	.	.
16d-	8rd	8dd-J	.
16B-JJ	.	.	.
8dd->	4ryy	8gg-	.
8r	.	8aanL	pp
8r	8ryy	8bb-J	.
!!LO:LB:g=original
=74	=74	=74	=74
*^	*	*	*
4r	4r	4re	40%3eee-L	.
.	.	.	40%3ddd-	.
.	.	.	40%3gg-	.
.	.	.	40%3b-	.
8r	8r	8re	.	.
.	.	.	40%3cc-J	.
4.D-	4B-	4.f	8dd-L	.
.	.	.	8b-	.
.	8c-	.	8a-J	.
*	*	*v	*v	*
=75	=75	=75	=75
*^	*	*	*
8GG-\	8G-L	8ryy	4.B- 4.g-	.
4ryy	8F	[4d-	.	.
.	24E-L	.	.	.
.	24F	.	.	.
.	24E-JJ	.	.	.
4.ryy	4.D-	4.d-]	4a-	.
.	.	.	8B- 8g- 8b-	.
=76	=76	=76	=76	=76
8GG-\	8G-L	8ryy	4.a-	.
4ryy	8F	[4d-	.	.
.	24E-L	.	.	.
.	24F	.	.	.
.	24E-JJ	.	.	.
4.ryy	4.D-	4.d-]	4B- 4g- 4b-	.
.	.	.	8dd-	.
*	*v	*v	*	*
*v	*v	*	*
=77	=77	=77
16GG-LL	8c-L 8a-	.
16D-	.	.
16c-	8g-	.
16A-	.	.
16g-	8a-J	.
16cc-JJ	.	.
8c-	8ee-L	.
8r	8ff	ppp
8r	8gg-J	.
=78	=78	=78
2.r	40%3bb-L	.
.	40%3aa-	.
.	40%3ee-	.
.	40%3a-	.
.	40%3b-J	.
.	4dd-	.
.	8cc-	.
!!LO:LB:g=original
=79	=79	=79
*^	*^	*
*^	*	*	*	*
8GG-\	8G-L	8ryy	4ryy	4.c- 4.a-	pp
4ryy	24FL	[4d-	.	.	.
.	24G-	.	.	.	.
.	24F	.	.	.	.
.	24E-	.	8ryy	.	.
.	24F	.	.	.	.
.	24E-	.	.	.	.
4.ryy	24D-	4.d-]	8r	8b-L	.
.	24E-	.	.	.	.
.	24D-	.	.	.	.
.	24E-	.	4c- 4f	8dd-	.
.	24D-	.	.	.	.
.	24E-	.	.	.	.
.	24D-	.	.	8cc-J	.
.	24E-	.	.	.	.
.	24D-JJ	.	.	.	.
=80	=80	=80	=80	=80	=80
8GG-\	8G-L	8ryy	8r	8b-L	.
4ryy	24FL	[4d-	4c-	8a-	.
.	24G-	.	.	.	.
.	24F	.	.	.	.
.	24E-	.	.	8g-J	.
.	24F	.	.	.	.
.	24E-	.	.	.	.
4.ryy	24D-	4.d-]	4.c- 4.f	4a-	.
.	24E-	.	.	.	.
.	24D-	.	.	.	.
.	24E-	.	.	.	.
.	24D-	.	.	.	.
.	24E-	.	.	.	.
.	24D-	.	.	8b-	.
.	24E-	.	.	.	.
.	24D-JJ	.	.	.	.
*	*	*	*v	*v	*
*	*v	*v	*	*
*v	*v	*	*
=81||	=81||	=81||
*M3/4	*M3/4	*
*	*^	*
8GG-L	4ryy	4B- 4g- 4dd-	.
8D-J	.	.	.
8B-L	12r	12r	.
.	6dd-	12ffL	.
8d-J	.	.	.
.	.	12g-J 12gg-	.
8g-L	12r	12r	.
.	6gg-	12aanL	.
8d-J	.	.	.
.	.	12b-J 12bb-	.
=82	=82	=82	=82
*	*Xtuplet	*	*
4B- 4dd->	12ryy	12rccc	.
.	6gg-	12gg-L 12cccn	.
.	.	12dd-J 12ddd-	.
12r	4ryy	4ddd- 4dddd-	.
12fL	.	.	mf
12e-J	.	.	.
12d-L	4r	4r	.
12c-	.	.	.
12B-J	.	.	.
!!LO:LB:g=original
=83	=83	=83	=83
*^	*	*	*
12A-L	2.A-	4ryy	12r	.
12D-	.	.	12c-L 12e-	pp
12GG-J	.	.	12d-J 12f	.
*Xtuplet	*Xtuplet	*	*Xtuplet	*
8d-L	.	12r	12r	.
.	.	6f	12fL 12gn	.
8D-J	.	.	.	.
.	.	.	12a-J	.
8d-L	.	12r	12r	.
.	.	6f	12fL 12b-	.
8D-J	.	.	.	.
.	.	.	12cc-J	.
=84	=84	=84	=84	=84
8B-L	4B-	12r	12r	.
.	.	6f	12fL 12ccn	.
8D-J	.	.	.	.
.	.	.	12dd-J	.
8c-XL	4c-	12r	12r	.
.	.	6f	12fL 12ddn	.
8D-J	.	.	.	.
.	.	.	12ee-J	.
8e-L	4e-	12r	12r	.
.	.	6f	12fL 12b-	.
8D-J	.	.	.	.
.	.	.	12cc-XJ	.
=85	=85	=85	=85	=85
12d-L	4d-	12r	12r	.
12D-	.	6d-	12d-L 12an	.
12GG-J	.	.	12g-J 12b-	.
12B-L	4B-	12ryy	12dd-/	.
12D-	.	6dd-	12dd-L 12aan	.
12GG-J	.	.	12gg-J 12bb-	.
12G-L	4G-	4ryy	12b- 12ddd-/	.
12D-	.	.	12r	.
12GG-J	.	.	12r	.
*	*	*v	*v	*
=86	=86	=86	=86
*	*	*^	*
12A-L	2.A-	12r	12r	.
12D-	.	6c-	12c-L 12gn	.
12GG-J	.	.	12fJ 12a-	.
12d-L	.	12ryy	12dd-/	.
12D-	.	6cc-	12cc-L 12ggn	.
12d-J	.	.	12ffJ 12aa-	.
12D-L	.	4ryy	12cc- 12ddd-/	.
12d-	.	.	12r	.
12D-J	.	.	12r	.
!!LO:LB:g=original
=87	=87	=87	=87	=87
12D-L	4A-	4ryy	12r	.
12GG-	.	.	12c-L 12e-	.
12D-J	.	.	12d-J 12f	.
12GL	4Gn	12r	12r	.
12D-	.	6e	12enL 12dd-	.
12GJ	.	.	12b-J 12ee-X	.
12A-L	4A-	12r	12r	.
12D-	.	6f	12fL 12dd-	.
12A-J	.	.	12cc-J 12ee-	.
=88	=88	=88	=88	=88
12B-L	4B-	12r	12r	.
12D-	.	6f	12fL 12dd-	.
12B-J	.	.	12b-J 12ee-	.
12c-L	4c-	12r	12r	.
12D-	.	6f	12fL 12dd-	.
12c-J	.	.	12a-J 12ee-	.
12e-L	6e-	4ryy	12r	.
12c-	.	.	12fL 12b-	.
12D-J	12e-->	.	12e--J 12a- 12cc-	.
=89	=89	=89	=89	=89
12d-L	4d-	12r	12r	.
12D-	.	6d-	12d-L 12an	.
12GG-J	.	.	12g-J 12b-	.
12B-L	4B-	4ryy	12ccn/L	.
12D-	.	.	12dd-	.
12GG-J	.	.	12gg-J	.
12G-L	4G-	4ryy	12bb-/L	.
12D-	.	.	12ccc-	.
12GG-J	.	.	12bb-J	.
=90	=90	=90	=90	=90
12A-L	4A-	12r	12ddd-	.
*	*	*	*8va	*
12D-	.	6cc-	12cc-L 12ggn	.
12GG-J	.	.	12ffJ 12aa-	.
12d-L	4d-	4ryy	12bb-/L	.
12D-	.	.	12ccc- 12eee-	.
12GG-J	.	.	12ddd-J 12fff	.
12A-L	4A-	4ryy	12fff/L 12eeee-	.
12D-	.	.	12dddd-J	.
*	*	*	*X8va	*
12d-J	.	.	12r	.
!!LO:LB:g=original
=91	=91	=91	=91	=91
8G-L	4G-	12r	12r	pp
.	.	6B-	12B-L 12f	.
8GG-J	.	.	.	.
.	.	.	12g-J	.
8FL	4F	12ryy	12b-	.
.	.	6B-	12B-L 12f	.
8d-J	.	.	.	.
.	.	.	12g-J	.
8E-L	4E-	4ryy	12dd-/	.
.	.	.	12r	.
8GG-J	.	.	.	.
.	.	.	12r	.
=92	=92	=92	=92	=92
8D-L	4D-	12r	12r	.
.	.	6c-X	12c-XL 12ccn	.
8GG-J	.	.	.	.
.	.	.	12fJ 12dd-	.
12D-L	4ryy	4ryy	12ee-/	.
12B-	.	.	12fL 12dd-	.
12c-J	.	.	12ee-J	.
8c-L 8f	4ryy	4dd-	6bb-	.
8D-J	.	.	.	.
.	.	.	12aa-	.
=93	=93	=93	=93	=93
8d-L	4G-	12r	12r	ppp
.	.	6b-	12b-L 12ff	.
8GG-J	.	.	.	.
.	.	.	12gg-J	.
8g-L	4F	12ryy	12bb-/	.
.	.	6b-	12b-L 12ff	.
8B-J	.	.	.	.
.	.	.	12gg-J	.
8d-L	4E-	4ryy	12ddd-/	.
.	.	.	12r	.
8GG-J	.	.	.	.
.	.	.	12r	.
*v	*v	*	*	*
=94	=94	=94	=94
8D-L 8c- 8f	12r	12r	.
*	*8va	*8va	*
.	6cc-	12cc-L 12cccn	.
8GG-J	.	.	.
.	.	12ffJ 12ddd-	.
12D-L	4ryy	12eee-/	.
12c-	.	12ffL 12ddd-	.
[12fJ	.	12eee-J	.
8c-L 8f] 8dd-	4ddd-	6bbb-	.
8D-J	.	.	.
.	.	12aaa-	.
*	*v	*v	*
*	*X8va	*
!!LO:LB:g=original
=95	=95	=95
*^	*^	*
4GG-	12GG-L	12r	12r	pp
.	12G-	6d-	12d-L 12an	.
.	12D-J	.	12B-J 12g- 12b-	.
4BB-	12BB-L	12r	12r	.
.	12B-	6g-	12g-L 12ccn	.
.	12G-J	.	12d-J 12b- 12dd-	.
4D-	12D-L	12r	12r	.
.	12d-	6b-	12b-L 12ff	.
.	12B-J	.	12g-J 12dd- 12gg-	.
*	*clefG2	*	*	*
=96	=96	=96	=96	=96
*	*	*8va	*8va	*
4G-	12G-L	12ryy	12rbb	.
.	12g-	6dd-	12dd-L 12aan	.
.	12d-J	.	12b-J 12gg- 12bb-	.
4B-	12B-L	12ryy	12rbb	.
.	12b-	6gg-	12gg-L 12cccn	.
.	12g-J	.	12dd-J 12bb- 12ddd-	.
4d-	12d-L	12ryy	12rbb	.
.	12dd-	6bb-	12bb-L 12fff	.
.	12b-J	.	12gg-J 12ddd- 12ggg-	.
=97	=97	=97	=97	=97
4g-	12g-L	12ryy	12rbb	.
.	12gg-	6ddd-	12ddd-L 12aaan	<
.	12dd-J	.	12bb-J 12ggg- 12bbb-	.
4g-	12g-L	12ryy	12rbb	.
.	12gg-	6ddd-	12ddd-L 12aaa	.
.	12dd-J	.	12bb-J 12ggg- 12bbb-	.
4g-	12g-L	12ryy	12rbb	.
.	12gg-	6ddd-	12ddd-L 12aaa	.
.	12dd-J	.	12bb-J 12ggg- 12bbb-	.
=98	=98	=98	=98	=98
4g-	12g-L	12ryy	12rbb	.
.	12gg-	6ddd-	12ddd-L 12aaan	.
.	12dd-J	.	12bb-J 12ggg- 12bbb-	.
*	*	*X8va	*X8va	*
*	*	*v	*v	*
*v	*v	*	*
4r	4r	.
4r	4r	.
*clefF4	*	*
!!LO:LB:g=original
=99	=99	=99
*k[b-e-a-d-g-]	*k[b-e-a-d-g-]	*
!	!	!LO:HP:b=2
4GGG- 4GG-	2.r	<
4BBB- 4BB-	.	(
4DD- 4D-	.	[
=100	=100	=100
!	!	!LO:HP:b=2
8.EE--L 8.E--	2.r	>
16BBB-Jk 16BB-	.	)
4BBB- 4BB-	.	]
4r	.	.
=101	=101	=101
*^	*^	*
4GG-	12GG-L	12r	12r	pp
.	12G-	6d-	12d-L 12an	.
.	12D-J	.	12B-J 12g- 12b-	.
4BB-	12BB-L	12r	12r	.
.	12B-	6g-	12g-L 12ccn	.
.	12G-J	.	12d-J 12b- 12dd-	.
4D-	12D-L	12r	12r	.
.	12d-	6b-	12b-L 12ff	.
.	12B-J	.	12g-J 12dd- 12gg-	.
*v	*v	*	*	*
=102	=102	=102	=102
4G- 4d- 4g-	8ffL	4b- 4dd- 4bb-	.
.	8eenJ	.	.
4r	4r	4r	.
4r	4r	4r	.
*	*v	*v	*
=103	=103	=103
!	!	!LO:HP:b=2
4FFF 4FF	2.r	<
4BBB- 4BB-	.	(
4FF 4F	.	[
=104	=104	=104
!	!	!LO:HP:b=2
8.GG-L 8.G-	2.r	>
16DD-Jk 16D-	.	)
4DD- 4D-	.	]
4r	.	.
!!LO:LB:g=original
=105	=105	=105
4FFF 4FF	2.r	pp
4AAAn 4AAn	.	.
4FF 4F	.	.
=106	=106	=106
8.GG-L 8.G-	2.r	.
16CCnJk 16Cn	.	.
4CC 4C	.	.
4FF 4F	.	.
=107	=107	=107
*^	*^	*
*	*	*^	*	*^
!	!	!	!	!	!LO:HP:b=2	!
4BBB-	12BBB-L	12ryy	12r	4b-	<	p
.	12D-	12c\L	6B-/	.	(	.
.	12FFJ	12D-J 12d-	.	.	(	.
4DD-	12DD-L	12ryy	12r	4an	(	.
.	12B-	12en\L	6d-/	.	(	.
.	12FFJ	12FJ 12f	.	.	(	.
4FF	12FFL	12ryy	12r	4b-	(	.
.	12d-	12e\L	6B-/	.	(	.
.	12D-J	12FJ 12f	.	.	[	.
=108	=108	=108	=108	=108	=108	=108
!	!	!	!	!	!LO:HP:b=2	!LO:HP:a=1
8.GG-L	12GG-L	12ryy	12r	4cc	>	<
.	12d-	12an\L	6g-/	.	)	(
.	12D-J	12B-J 12b-	.	.	)	(
16DD-Jk	.	.	.	.	)	(
2DD-	12DD-L	12ryy	12r	4dd-	]	(
.	12d-	12a\L	6g-/	.	.	(
.	12D-J	12B-J 12b-	.	.	.	(
.	12rd	12ryy	12r	4ff	.	(
.	12d-L	12a\L	6g-/	.	.	(
.	12D-J	12B-J 12b-	.	.	.	[
*	*	*	*	*	*v	*v
!!LO:LB:g=original
=109	=109	=109	=109	=109	=109
!	!	!	!	!	!LO:HP:a=1
4CC	12CCL	12ryy	12r	2.ff	>
.	12G-	12an\L	6d-/	.	)
.	12BB-J	12B-J 12g- 12b-	.	.	)
4C	12CL	12ryy	12r	.	)
.	12B-	12dd-X\L	6g-/	.	)
.	12G-J	12dJ 12b- 12ddn	.	.	)
4C	12CL	12ryy	12r	.	)
.	12g-	12aan\L	6dd-/	.	]
.	12B-J	12b-J 12gg- 12bb-	.	.	.
*	*clefG2	*	*	*	*
=110	=110	=110	=110	=110	=110
4c	12cL	12r	4ryy	2.ee-	.
.	12b-	12eee-\L	.	.	.
.	12g-J	12bb-J	.	.	.
4c	12cL	12ryy	12r	.	.
*	*	*	*8va	*	*
.	12ee-	12aaan\L	6eee-/	.	.
.	12b-J	12bb-J 12ggg- 12bbb-	.	.	.
4ryy	8cc 8gg- 8bb-	8eee- 8bbb- 8eeee-\	4ryy	.	.
.	8r	8r	.	.	.
*	*	*	*X8va	*	*
*	*	*	*v	*v	*
*	*	*v	*v	*
*v	*v	*	*
*clefF4	*	*
=111	=111	=111
*	*^	*
12CCL 12C	2.G-	4A- 4e-	p
12DD- 12D-	.	.	.
12CCJ 12C	.	.	.
12BBB-L 12BB-	.	4B- 4d-	.
12CC 12C	.	.	.
12BBB-J 12BB-	.	.	.
12AAA-L 12AA-	.	4c 4e-	<
12BBB- 12BB-	.	.	.
12AAA-J 12AA-	.	.	.
=112	=112	=112	=112
12EEE-L 12EE-	2G- 2d-	4f	.
12BBB-	.	.	.
12EEE-J 12EE-	.	.	.
12BBB-L	.	6g-	.
12EEE- 12EE-	.	.	.
12BBB-J	.	12g-	.
12EEE-L 12EE-	4G- 4d-	12g-L	.
12BBB-	.	12ccJ	.
12EEE-J 12EE-	.	24r	.
.	.	24b-	.
!!LO:LB:g=original
=113	=113	=113	=113
12AAA-L 12AA-	4G- 4c	2b-	.
12Dn	.	.	.
12E-J	.	.	.
12AA-L 12B-/	4G- 4e- 4g-	.	.
12dn	.	.	.
12e-J	.	.	.
*clefG2	*	*	*
12B-XL 12b-X	4g- 4ee- 4gg-	4ryy	.
12ddn	.	.	.
12ee-J	.	.	.
*	*v	*v	*
=114	=114	=114
4b- 4bb-	4gg- 4eee- 4ggg-	f
4E- 4A- 4c-X 4e- 4cc-X	4gg- 4ccc-X 4ggg-	.
4cn 4e- 4g- 4a- 4ccn	4gg- 4cccn 4ggg-	.
*clefF4	*	*
=115	=115	=115
*^	*^	*
*	*	*^	*	*^
!	!	!	!	!	!LO:HP:b=2	!
4DD-	12DD-L	12ryy	12r	4dd-	<	p
.	12A-	12en\L	6d-/	.	(	.
.	12AA-J	12FJ 12f	.	.	(	.
4FF	12FFL	12ryy	12r	4cc	(	.
.	12d-	12gn\L	6f/	.	(	.
.	12D-J	12A-J 12a-	.	.	(	.
4AA-	12AA-L	12ryy	12r	4dd-	(	.
.	12f	12g\L	6d-/	.	(	.
.	12FJ	12d-J 12a-	.	.	[	.
=116	=116	=116	=116	=116	=116	=116
!	!	!	!	!	!LO:HP:b=2	!LO:HP:a=1
8.BB-L	12BB-L	12ryy	12r	4ee-	>	<
.	12f	12ccn\L	6a-/	.	)	(
.	12FJ	12d-J 12dd-	.	.	)	(
16FFJk	.	.	.	.	)	(
2FF	12FFL	12ryy	12r	4ff	]	(
.	12f	12cc\L	6a-/	.	.	(
.	12FJ	12d-J 12dd-	.	.	.	(
.	12rB	12ryy	12r	4aa-	.	[
.	12B-L	12cc\L	6a-/	.	.	.
.	12BB-J	12d-J 12dd-	.	.	.	.
*	*	*	*	*	*v	*v
!!LO:LB:g=original
=117	=117	=117	=117	=117	=117
!	!	!	!	!	!LO:HP:a=1
4EE-	12EE-L	12ryy	12r	2.aa-	>
.	12B-	12cc\L	6g-/	.	)
.	12BB-J	12d-J 12dd-	.	.	)
4BB-	12BB-L	12ryy	12r	.	)
.	12d-	12ff\L	6dd-/	.	)
.	12G-J	12g-J 12gg-	.	.	)
4G-	12G-L	12ryy	12r	.	)
.	12g-	12ccc\L	6gg-/	.	]
.	12d-J	12dd-J 12ddd-	.	.	.
=118	=118	=118	=118	=118	=118
4E-	12E-L	12r	4ryy	2.gg-	.
*	*clefG2	*	*	*	*
.	12b-	12ggg-\L	.	.	.
.	12d-J	12ddd-J	.	.	.
4ryy	12d-/L	12ryy	12r	.	.
*	*	*8va	*	*	*
.	12gg-	12cccc\L	6ggg-/	.	.
.	12b-J	12ddd-J 12dddd-	.	.	.
4ryy	12dd- 12bb-	12ggg- 12dddd- 12gggg-\	4ryy	.	.
*	*	*X8va	*	*	*
.	12r	12r	.	.	.
.	12r	12r	.	.	.
*	*	*	*v	*v	*
*	*	*v	*v	*
*v	*v	*	*
*clefF4	*	*
=119	=119	=119
*	*^	*
12GG-L 12G-/	2.B- 2.d-	4e-	p
12AA- 12A-	.	.	.
12GG-J 12G-	.	.	.
12FFL 12F	.	4f	.
12GG- 12G-	.	.	.
12FFJ 12F	.	.	.
12EE-L 12E-	.	4g-	.
12FF 12F	.	.	.
12EE-J 12E-	.	.	.
=120	=120	=120	=120
12EE-L 12E-	4B- 4d- 4g-	4dd-	.
12BBB- 12BB-	.	.	.
12FFJ 12F	.	.	.
12EE-L 12E-	2B- 2d-	4.g-	.
12BB-	.	.	.
12EE-J 12E-	.	.	.
12BB-L	.	.	.
12EE- 12E-	.	.	.
.	.	8f	.
12FFJ 12F	.	.	.
*	*v	*v	*
!!LO:LB:g=original
=121	=121	=121
*k[f#c#g#d#]	*k[f#c#g#d#]	*
*	*^	*
12FF#L 12F#	2.A 2.c#	4d#	.
12GG# 12G#	.	.	.
12FF#J 12F#	.	.	.
12EE#XL 12E#X	.	4e#X	.
12FF# 12F#	.	.	.
12EE#J 12E#	.	.	.
12DD#L 12D#	.	4f#	.
12EE# 12E#	.	.	.
12DD#J 12D#	.	.	.
=122	=122	=122	=122
*^	*	*	*
4ryy	12DD#L 12D#	4A 4B#X 4f#	4a	.
.	12GGG# 12GG#	.	.	.
.	12DD#J 12D#	.	.	.
12D#L	4A 4B#X 4f#	2ff#	4bn 4bbn	.
12Dn	.	.	.	.
12D#XJ	.	.	.	.
12rAA	4rc	.	4a 4aa	.
12DnL	.	.	.	.
12D#XJ	.	.	.	.
*v	*v	*	*	*
=123	=123	=123	=123
4E 4c# 4e	4r	2.a 2.cc# 2.aa	.
!	!	!	!LO:HP:b=2
4FFF##X 4FF##X	12r	.	<
.	12d#L	.	(
.	12EJ 12c# 12e	.	(
4GGG# 4GG#	12r	.	(
.	12d#L	.	(
.	12EJ 12c# 12e	.	[
=124	=124	=124	=124
*	*^	*	*
!	!	!	!	!LO:HP:b=2
4BBB 4BB	12ryy	12r	2g# 2cc# 2gg#	>
.	12f##X\L	6c#/	.	)
.	12G#J 12e 12g#	.	.	)
4AAA 4AA	12ryy	12r	.	)
.	12b#X\L	6e/	.	)
.	12c#J 12g# 12cc#	.	.	)
4GGG# 4GG#	12ryy	12r	4g# 4gg#	]
.	12dd#\L	6g#/	.	.
.	12eJ 12cc# 12ee	.	.	.
*	*v	*v	*	*
!!LO:LB:g=original
=125	=125	=125	=125
4D# 4B#X 4d#	4r	2.g# 2.b#X 2.gg#	.
!	!	!	!LO:HP:b=2
4FFF##X 4FF##X	12r	.	<
.	12dnL	.	(
.	12D#J 12B#X 12d#X	.	(
4GGG# 4GG#	12r	.	(
.	12dnL	.	(
.	12D#J 12B# 12d#X	.	[
=126	=126	=126	=126
*	*^	*	*
!	!	!	!	!LO:HP:b=2
4BBB#X 4BB#X	12ryy	12rA	4ree	>
.	12f##X\L	6d#/	.	)
.	12G#J 12g#	.	.	)
4AAA#X 4AA#X	12ryy	12rA	4ree	)
.	12b\L	6d#/	.	)
.	12B#XJ 12b#X	.	.	)
4GGG# 4GG#	12rA	4ryy	4f#X 4ff#X	]
.	12ddn\L	.	.	.
.	12e-XJ 12ccn 12ee-X	.	.	.
*	*	*v	*v	*
*	*v	*v	*
=127	=127	=127
*k[]	*k[]	*
*	*^	*
4E-X 4c 4e-X	4r	2.a-X 2.cc 2.aa-X	.
!	!	!	!LO:HP:b=2
4FFF#X 4FF#X	12r	.	<
.	12dL	.	(
.	12E-XJ 12c 12e-X	.	(
4GGG 4GG	12r	.	(
.	12dL	.	(
.	12E-J 12c 12e-	.	[
=128	=128	=128	=128
*	*^	*	*^
!	!	!	!	!LO:HP:b=2	!
4BBB-X 4BB-X	12ryy	12r	2g 2cc 2gg	>	.
.	12f#X\L	6c#/	.	)	.
.	12GJ 12e-X 12g	.	.	)	.
4AAA-X 4AA-X	12ryy	12r	.	)	.
.	12b\L	6e-/	.	)	.
.	12cJ 12cc	.	.	)	.
4GGG 4GG	12r	4ryy	4e- 4ee-X	]	<
.	12gL 12dd\	.	.	.	.
.	12ccJ 12ee-	.	.	.	.
*	*	*	*	*v	*v
!!LO:LB:g=original
=129	=129	=129	=129	=129
4E-X 4Bn	4rA	2.bn	[2e-X [2ee-X	.
!	!	!	!	!LO:HP:b=2
4FFF#X 4FF#X	12rA	.	.	<
.	12d\L	.	.	(
.	12E-XJ 12B 12e-	.	.	(
4GGG 4GG	12rA	.	8.e-L] 8.ee-]	(
.	12d\L	.	.	(
.	12E-J 12B 12e-	.	.	(
.	.	.	16fJk 16ff	[
*	*v	*v	*	*
=130	=130	=130	=130
!	!	!	!LO:HP:b=2
4BBB 4BB	12r	2g 2gg	>
.	12f#XL	.	)
.	12GJ 12e-X 12g	.	)
4AAA 4AA	12r	.	)
.	12BL	.	)
.	12e-J 12g 12b	.	)
4GGG 4GG	12r	4d 4dd	]
.	12e#XL 12cc#X	.	.
.	12bJ 12dd	.	.
=131	=131	=131	=131
4D 4F#X 4B 4d	4b	8e#XL 8ee#X	.
.	.	8f#XJ 8ff#X	.
4FFF#X 4FF#X	4ryy	12dddL 12fff#X	f
.	.	12ff#	.
.	.	12cc#XJ	.
4GGG 4GG	4ryy	12ddL 12ff#	.
.	.	12f#	.
.	.	12c#XJ	.
*	*v	*v	*
=132	=132	=132
4GGG#X 4GG#X	12dL 12f#X/	.
.	12F#X<	.
.	12C#X<J	.
4AAA 4AA	12D<L 12F#<	.
.	12FF#X<	.
.	12D<J 12F#<	.
4AAA#X 4AA#X	12FF#<L	.
.	12D< 12F#<	.
.	12FF#<J	.
!!LO:LB:g=original
=133	=133	=133
!	!	!LO:HP:b=2
4BBB 4BB	4FF#X< 4D< 4F#X<	<
4AAAn 4AAn\	12ddL 12ff#X	(
.	12f#X	(
.	12c#XJ	(
4AAA#X 4AA#X	12dL 12f#	[
.	12F#<	.
.	12C#X<J	.
=134	=134	=134
*	*^	*^
!	!	!	!LO:DY:b=2	!
8.BBBL 8.BB	4ryy	12D<L 12F#X<	sf	.
!	!	!	!LO:HP:b=2	!
.	.	12FF#X<	>	.
.	.	12D<J 12F#<	)	.
16FFF#XJk 16FF#X	.	.	)	.
*	*	*clefG2	*	*
4FFF# 4FF#\	4ryy	12r	]	>
.	.	12cc#XL	.	.
.	.	12dJ 12b 12dd	.	.
4GG-X 4C#X 4B-X/	12r	12r	.	.
.	6b	12bL 12ee-X	.	.
.	.	12enJ 12een	.	.
*	*	*	*v	*v
=135	=135	=135	=135
*^	*	*	*
12FFL	4F	2.bb-X	2.gg 2.ggg	pp
12AA	.	.	.	.
12BB-XJ	.	.	.	.
12C#XL	4r	.	.	.
12D	.	.	.	.
12EJ	.	.	.	.
12FL	4r	.	.	.
12A	.	.	.	.
12B-XJ	.	.	.	.
=136	=136	=136	=136	=136
12c#XL	4F	2.bb-X\	2ff 2fff	.
12d>	.	.	.	.
12e>J	.	.	.	.
12f>L	4rC	.	.	.
12a>	.	.	.	.
12b-X>J	.	.	.	.
12cc#X>L	4rC	.	4ff 4fff	.
12dd>	.	.	.	.
12ee>J	.	.	.	.
*	*	*v	*v	*
!!LO:LB:g=original
=137	=137	=137	=137
4ff>	4rC	4ff 4fff	.
*v	*v	*	*
4r	12fL	.
.	12a	.
.	12b-XJ	.
4F 4d 4b-X	12cc#XL	.
.	12dd	.
.	12eeJ	.
=138	=138	=138
4F 4d 4b-X	12ffL	.
.	12aa	.
.	12bb-XJ	.
4r	12ccc#XL	.
.	12ddd	.
.	12eeeJ	.
4r	12fffL	.
.	12bbb-X	.
.	12ffffJ	.
=139	=139	=139
*^	*^	*
*	*	*	*8va	*
12DDL	4F	2.fff	2.aa 2.aaa	.
12AA	.	.	.	.
12BB-XJ	.	.	.	.
12C#XL	4r	.	.	.
12D	.	.	.	.
12EJ	.	.	.	.
12FL	4r	.	.	.
12A	.	.	.	.
12B-XJ	.	.	.	.
=140	=140	=140	=140	=140
12c#XL	4F	2.fff\	2bb-X 2bbb-X	.
*	*	*	*X8va	*
12d>	.	.	.	.
12e>J	.	.	.	.
12f>L	4rC	.	.	.
12a>	.	.	.	.
12b-X>J	.	.	.	.
12cc#X>L	4rC	.	4bb- 4bbb-	.
12dd>	.	.	.	.
12ee>J	.	.	.	.
*	*	*v	*v	*
*clefF4	*	*	*
!!LO:LB:g=original
=141	=141	=141	=141
4ff>	4rC	4bb-X 4bbb-X	.
*v	*v	*	*
4r	12fL	.
.	12a	.
.	12b-XJ	.
4BBB-X 4BB-X	12cc#XL	.
.	12dd	.
.	12eeJ	.
=142	=142	=142
4F 4d 4b-X	12ffL	.
.	12aa	.
.	12bb-XJ	.
4D 4B-X 4f	12ccc#XL	.
.	12ddd	.
.	12eee-XJ	.
4BB-X 4B-X	12dddL	.
.	12bb-X	.
.	12bbb-XJ	.
=143	=143	=143
4AA-X 4A-X	4ccc-X 4aaa-X 4cccc-X	.
*	*	*^
*	*8va	*	*
4DD#X 4D#X	12bbbL 12dddd#X	.	f
!	!	!LO:HP:b=2	!
.	12ddd#X	<	.
.	12aa#XJ	.	.
*	*	*v	*v
*	*X8va	*
4EE 4E	12bbL 12ddd#	.
.	12dd#X	.
.	12a#XJ	.
=144	=144	=144
4EE#X 4E#X	12bL 12dd#X	.
.	12d#X	.
.	12A#XJ	.
4FF#X 4F#X	12BL 12d#	.
.	12D#X	.
.	12BJ 12d#	.
4FF##X 4F##X	12D#L	.
.	12B 12d#	.
.	[12D#J	.
!!LO:LB:g=original
=145	=145	=145
!	!	!LO:HP:b=2
4GG#X 4G#X	4D#] 4B 4d#X	<
4FF#X 4F#X	12bbL 12ddd#X	(
.	12dd#X	(
.	12a#XJ	(
4FF##X 4F##X	12bL 12dd#	(
.	12d#	(
.	12A#XJ	[
=146	=146	=146
*	*^	*
!	!	!	!LO:DY:b=2
8.GG#XL 8.G#X	4ryy	12BL 12d#X	sf
!	!	!	!LO:HP:b=2
.	.	12D#X	>
.	.	12BJ 12d#	)
16DD#XJk 16D#X	.	.	)
4DD# 4D#	4ryy	12r	]
.	.	12a#XL	.
.	.	12BJ 12g#X 12b	.
4D# 4B	12r	12r	.
.	6g#	12g#L 12cc##X	.
.	.	12d#J 12dd#X	.
=147	=147	=147	=147
*^	*	*	*
*	*	*8va	*	*
12DD#XL	4F#X	2.fff#X	2.ccc#X 2.cccc#X	pp
*	*	*X8va	*	*
12AA#X	.	.	.	.
12BBJ	.	.	.	.
12C##XL	4r	.	.	.
12D#X	.	.	.	.
12E#XJ	.	.	.	.
12F#L	4r	.	.	.
12A#X	.	.	.	.
12BJ	.	.	.	.
*v	*v	*	*	*
=148	=148	=148	=148
12c##X>L	2.fff#X	2bb 2bbb	.
12d#X>	.	.	.
12e#X>J	.	.	.
12f#X>L	.	.	.
12a#X>	.	.	.
12b>J	.	.	.
12cc##X>L	.	4bb 4bbb	.
12dd#X>	.	.	.
12ee#X>J	.	.	.
!!LO:LB:g=original
=149	=149	=149	=149
4ff#X>	4ryy	4bb 4bbb	.
*	*v	*v	*
4r	12f#XL	.
.	12a#X	.
.	12bJ	.
4D#X 4B 4f#X	12cc##XL	.
.	12dd#X	.
.	12ee#XJ	.
=150	=150	=150
4D#X 4B 4f#X	12ff#XL	.
.	12aa#X	.
.	12bbJ	.
4r	12ccc##XL	.
.	12ddd#X	.
.	12eee#XJ	.
4r	12fff#XL	.
.	12bb	.
.	12bbbJ	.
=151	=151	=151
*	*^	*
12BBBL	2.fff#X	2.gg#X 2.ddd#X 2.ggg#X	.
12FF#X	.	.	.
12BBJ	.	.	.
12C##XL	.	.	.
12D#X	.	.	.
12E#XJ	.	.	.
12F#XL	.	.	.
12A#X	.	.	.
12BJ	.	.	.
=152	=152	=152	=152
12c##X>L	2.ddd#X 2.fff#X	2gg##X 2ggg##X	.
12d#X>	.	.	.
12e#X>J	.	.	.
12f#X>L	.	.	.
12a#X>	.	.	.
12b>J	.	.	.
12cc##X>L	.	4gg## 4ggg##	.
12dd#X>	.	.	.
12ee#X>J	.	.	.
!!LO:LB:g=original
=153	=153	=153	=153
4ff#x>	4ryy	4gg##X 4ggg##X	.
*	*v	*v	*
4r	12f#XL	.
.	12a#X	.
.	12bJ	.
4F#X 4B 4f#X	12cc##XL	.
.	12dd#X	<
.	12ee#XJ	.
=154	=154	=154
4BB 4F#X 4B	12ff#XL	.
.	12aa#X	.
.	12bbJ	.
4FF#X 4BB 4F#	12ccc##XL	.
.	12ddd#X	.
.	12eee#XJ	.
4BBB 4BB	12fff#XL	.
.	12fff#	.
.	12ffff#XJ	.
=155	=155	=155
*k[b-e-a-d-g-c-]	*k[b-e-a-d-g-c-]	*
*	*^	*
4G- 4B- 4e- 4g-	4r	4r	f
4BBB- 4BB-	12r	12r	.
.	6b-	12b-L 12ff	.
.	.	12g-J 12ee- 12gg-	.
4G- 4B- 4e- 4g-	12r	12r	.
*	*8va	*	*
.	6bb-	12bb-L 12fff	.
.	.	12gg-J 12eee- 12ggg-	.
*	*X8va	*	*
=156	=156	=156	=156
4G- 4c- 4e- 4g-	4r	4r	<
4BBB- 4BB-	12r	12r	.
.	6cc-	12cc-L 12ff	.
.	.	12g-J 12ee- 12gg-	.
4G- 4c- 4e- 4g-	12r	12r	.
*	*8va	*	*
.	6ccc-	12ccc-L 12fff	.
.	.	12gg-J 12eee- 12ggg-	.
*	*X8va	*	*
!!LO:LB:g=original
=157	=157	=157	=157
4G- 4cn 4e- 4g-	4r	4r	.
4BBB- 4BB-	12r	12r	.
.	6cc	12ccnL 12ff	.
.	.	12g-J 12ee- 12gg-	.
4G- 4c 4e- 4g-	12r	12r	.
*	*8va	*	*
.	6ccc	12cccnL 12fff	.
.	.	12gg-J 12eee- 12ggg-	.
*	*X8va	*	*
=158	=158	=158	=158
4G- 4cn 4e- 4an	4r	4r	.
4BBB- 4BB-	12r	12r	.
.	6ee-	12ee-L 12aa-	.
.	.	12anJ 12gg- 12aan	.
4G- 4c 4e- 4a	12r	12r	.
*	*8va	*	*
.	6eee-	12eee-L 12aaa-	.
.	.	12aanJ 12ggg- 12aaan	.
*	*v	*v	*
=159	=159	=159
*8ba	*	*
4BBBB- 4BBB-	4bb- 4bbb-	ff
*X8ba	*X8va	*
4D-X 4A- 4B- 4d-X	4f-X 4b- 4ff-X	.
4Dn 4A- 4B- 4dn	4fn 4b- 4ffn	.
=160	=160	=160
4E- 4A- 4B- 4e-	4g- 4b- 4gg-	.
4F 4B- 4f	4a- 4ddn 4aa-	.
4G- 4c- 4g-	4cc- 4ee- 4ccc-	.
=161	=161	=161
4A- 4dn 4a-	2.b- [2.ddn 2.bb-	.
4BBB- 4BB-	.	.
8r	.	.
16r	.	.
16BBB- 16BB-	.	.
=162	=162	=162
4BBB- 4BB-	2.a- 2.dd] 2.aa-	.
4CC- 4C-	.	.
4FFF 4FF	.	.
!!LO:LB:g=original
=163	=163	=163
!! 22/4 for encoding of cadenza passage; not in Scriabin's original notation.
*M22/4	*M22/4	*
*8ba	*	*
*cue	*cue	*
12BBBB- 12BBB-	12r	.
*X8ba	*	*
12DnL 12A- 12B- 12dn\	12fnL 12b- 12ffn\	.
12D-XJ 12A- 12B- 12d-X	12f-XJ 12b- 12ff-X	.
12DnL 12A- 12B- 12dn\	12fnL 12b- 12ffn\	.
12E- 12A- 12B- 12e-	12g- 12b- 12gg-	.
12G-J 12B- 12g-	12b-J 12ddn 12bb-	.
12FL 12B- 12f\	12a-L 12dd 12aa-\	.
12F 12B- 12f	12a- 12dd 12aa-	.
12F-XJ 12B- 12f-X	12gnJ 12dd 12ggn	.
12FnL 12B- 12fn\	12a-L 12dd 12aa-\	.
12G-J 12B- 12g-	12b- 12dd 12bb-	.
*clefG2	*	*
12B- 12dn 12b-	12dd-XJ 12ff 12ddd-X	.
12A-L 12d 12a-	12cc-L 12ff 12ccc-\	.
12A- 12d 12a-	12cc- 12ff 12ccc-	.
12GnJ 12d 12gn	12b-J 12ff 12bb-	.
12A-L 12d 12a-	12cc-L 12ff 12ccc-\	.
12B- 12dn 12b-	12dd-X 12ff 12ddd-X	.
12d-XJ 12f 12dd-X	12ffJ 12aa- 12fff	.
12c-L 12f 12cc-	12ee-L 12aa- 12eee-\	.
12B- 12f 12b-	12ddn 12aa- 12dddn	.
*	*8va	*
12e-J 12a- 12ee-	12ggJ 12ccc- 12gggn	.
12e-L 12a- 12ee-	12ggL 12ccc- 12ggg\	.
12dn 12a- 12ddn	12ff 12ccc- 12fff	.
12gJ 12b- 12ggn	12bb-J 12dddn 12bbb-	.
12gL 12b- 12gg\	12bb-L 12ddd 12bbb-\	.
12f 12b- 12ff	12aa- 12ddd 12aaa-	.
12b-J 12ddn 12bb-	12ddd-XJ 12fff 12dddd-X	.
12b-L 12ddn 12bb-\	12ddd-XL 12fff 12dddd-X\	.
12a- 12dd 12aa-	12ccc- 12fff 12cccc-	.
12ee-J 12eee-	12fffJ 12aaa- 12cccc- 12ffff	.
12ddL 12dddn\	12fffL 12aaa- 12cccc- 12ffff\	.
12dd-X 12ddd-X	12dddn 12fff 12aaa- 12ddddn	.
12cc-J 12ccc-	12dddJ 12fff 12aaa- 12dddd	.
12b-L 12bb-\	12ccc-L 12ddd 12fff 12cccc-\	.
12a- 12aa-	12ccc- 12ddd 12fff 12cccc-	.
12g-XJ 12gg-X	12aa-J 12ccc- 12ddd 12aaa-	.
12fL 12ff	12aa-L 12ccc- 12ddd 12aaa-\	.
12e- 12ee-	12ff 12aa- 12ccc- 12fff	.
12dnJ 12ddn	12ffJ 12aa- 12ccc- 12fff	.
12d-XL 12dd-X	12ddnL 12ff 12aa- 12ddd	.
12c- 12cc-	12dd 12ff 12aa- 12ddd	.
12B-J 12b-	12cc-J 12dd 12ff 12ccc-	.
12A-L 12a-	12cc- 12ddn 12ff 12ccc-	.
*	*X8va	*
12G-X 12g-	12a-L 12cc- 12ddn 12aa-\	.
*clefF4	*	*
12FJ 12f	12a-J 12cc- 12dd 12aa-	.
12E-L 12e-\	12fL 12a- 12cc- 12ff	.
12Dn 12dn	12f 12a- 12cc- 12ff	.
12D-XJ 12d-X	12dnJ 12f 12a- 12ddn	.
12C-L 12c-\	12dL 12f 12a- 12dd	.
12BB- 12B-	12c- 12d 12f 12cc-	.
12AA-J 12A-	12c-J 12d 12f 12cc-	.
12GG-L 12G-	12A-L 12c- 12dn 12a-	.
12FF 12F	12A- 12c- 12d 12a-	.
12EE-J 12E-	12FJ 12A- 12c- 12f	.
*	*clefF4	*
12DDnL 12Dn	12FL 12A- 12c- 12f\	.
12DD-X 12D-X	12Dn 12F 12A- 12dn	.
12CC-J 12C-	12DJ 12F 12A- 12d	.
12BBB-L 12BB-	12DL 12F 12A- 12d\	.
12CC- 12C-	12D 12F 12A- 12d	.
12BBB-J 12BB-	12DJ 12F 12A- 12d	.
12CC-L 12C-	12DL 12F 12A- 12d\	.
12BBB- 12BB-	12D 12F 12A- 12d	.
12CC-J 12C-	12DJ 12F 12A- 12d	.
12BBB-L 12BB-	12DL 12F 12A- 12d\	.
12CC- 12C-	12D 12F 12A- 12d	.
12BBB-J 12BB-	12DJ 12F 12A- 12d	.
*Xcue	*Xcue	*
*	*clefG2	*
!!LO:LB
=164	=164	=164
*M3/4	*M3/4	*
*^	*^	*
!	!	!	!	!LO:DY:b=2
4EE- 4E-	8E-L	12r	12r	ff
!	!	!	!	!LO:HP:b=2
.	.	6B-	12B-L 12f	<
.	8BB-J	.	.	(
.	.	.	12G-J 12e- 12g-	(
4GG- 4G-	8G-L	12r	12r	(
.	.	6e-	12e-L 12an	(
.	8E-J	.	.	(
.	.	.	12B-J 12g- 12b-	(
4BB- 4B-	8B-L	12r	12r	(
.	.	6g-	12g-L 12ddn	(
.	8G-J	.	.	(
.	.	.	12e-J 12b- 12ee-	[
=165	=165	=165	=165	=165
!	!	!	!	!LO:HP:b=2
8.C-L 8.c-	8c-L	12r	12r	>
.	.	6g-	12g-L 12ddn	)
.	8G-J	.	.	)
.	.	.	12e-J 12an 12ee-	)
16GG-Jk 16G-	.	.	.	)
2GG- 2G-	8G-L	12r	12r	]
.	.	6e-	12e-L 12a-X	.
.	8E-J	.	.	.
.	.	.	12AnJ 12g- 12an	.
.	8G-L	12r	12r	.
.	.	6e-	12e-L 12a-X	.
.	8E-J	.	.	.
.	.	.	12AnJ 12g- 12an	.
!!LO:LB:g=original
=166	=166	=166	=166	=166
!	!	!	!	!LO:DY:b=2
8.BB-L 8.B-	8B-L	12r	12r	sf
!	!	!	!	!LO:HP:b=2
.	.	6g-	12g-L 12ddn	>
.	8G-J	.	.	)
.	.	.	12e-J 12b- 12ee-	)
16GG-Jk 16G-	.	.	.	)
2GG- 2G-	8G-L	12r	12r	]
.	.	6e-	12e-L 12an	.
.	8E-J	.	.	.
.	.	.	12B-J 12g- 12b-	.
.	8G-L	12r	12r	.
.	.	6e-	12e-L 12a	.
.	8E-J	.	.	.
.	.	.	12B-J 12g- 12b-	.
=167	=167	=167	=167	=167
8.AAnL 8.A	8AnL	12r	12r	.
.	.	6g-	12g-L 12ddn	.
.	8G-J	.	.	.
.	.	.	12e-J 12cc- 12ee-	.
16GG-Jk 16G-	.	.	.	.
2GG- 2G-	8G-L	12r	12r	.
.	.	6e-	12e-L 12b-	.
.	8E-J	.	.	.
.	.	.	12c-J 12g- 12cc-	.
.	8G-L	12r	12r	.
.	.	6e-	12e-L 12b-	.
.	8E-J	.	.	.
.	.	.	12c-J 12an 12cc-	.
=168	=168	=168	=168	=168
!	!	!	!	!LO:HP:b=2
4BB- 4B-	8B-L	12r	12r	<
.	.	6g-	12g-L 12ddn	(
.	8G-J	.	.	(
.	.	.	12e-J 12b- 12ee-	(
4GG- 4G-	8G-L	12r	12r	(
.	.	6e-	12e-L 12an	(
.	8E-J	.	.	(
.	.	.	12B-J 12g- 12b-	(
4EE- 4E-	8E-L	12r	12r	(
.	.	6B-	12B-L 12f	(
.	8BB-J	.	.	(
.	.	.	12G-J 12e- 12g-	[
=169	=169	=169	=169	=169
!	!	!	!	!LO:HP:b=2
8.EE-L 8.E-	8E-L	12r	12r	>
.	.	6A	12AnL 12f	)
.	8C-J	.	.	)
.	.	.	12G-J 12e- 12g-	)
16CC-Jk 16C-	.	.	.	)
2CC- 2C-	8C-L	12r	12r	]
.	.	6A	12AL 12dn	.
.	8GG-J	.	.	.
.	.	.	12E-J 12e-	.
.	8C-L	12r	12r	.
.	.	6A	12AL 12d	.
.	8GG-J	.	.	.
.	.	.	12E-J 12e-	.
!!LO:LB:g=original
=170	=170	=170	=170	=170
!	!	!	!	!LO:DY:b=2
8.EE-L 8.E-	8E-L	12r	12r	sf
!	!	!	!	!LO:HP:b=2
.	.	6B-	12B-L 12f	>
.	8BB-J	.	.	)
.	.	.	12G-J 12e- 12g-	)
16BBB-Jk 16BB-	.	.	.	)
2BBB- 2BB-	8BB-L	12r	12r	]
.	.	6G-	12G-L 12dn	.
.	8GG-J	.	.	.
.	.	.	12E-J 12B- 12e-	.
.	8BB-L	12r	12r	.
.	.	6G-	12G-L 12d	.
.	8GG-J	.	.	.
.	.	.	12E-J 12B- 12e-	.
=171	=171	=171	=171	=171
!	!	!	!	!LO:HP:b=2
8.EE-L 8.E-	8E-L	12r	12r	>
.	.	6c-	12c-L 12f	)
.	8AA-J	.	.	)
.	.	.	12G-J 12e- 12g-	)
16AAA-Jk 16AA-	.	.	.	)
2AAA- 2AA-	8AA-L	12r	12r	]
.	.	6G-	12G-L 12dn	.
.	8EE-J	.	.	.
.	.	.	12E-J 12c- 12e-	.
.	8E-L	12r	12r	.
.	.	6F	12FL 12d-X	.
.	8EE-J	.	.	.
.	.	.	12DnJ 12c- 12dn	.
=172	=172	=172	=172	=172
!	!	!	!	!LO:HP:b=2
4GGG- 4GG-	8GG-L	12r	12r	<
.	.	6B-	12B-L 12dn	(
.	8EE-J	.	.	(
.	.	.	12E-J 12e-	(
4AAA- 4AA-	8AA-L	12r	12r	(
.	.	6c-	12c-L 12f-X	(
.	8EE-J	.	.	(
.	.	.	12FJ 12e- 12fn	(
4BBB- 4BB-	8BB-L	12r	12r	(
.	.	6d	12dL 12f	(
.	8GG-J	.	.	(
.	.	.	12G-J 12B- 12g-	[
=173	=173	=173	=173	=173
!	!	!	!	!LO:DY:b=2
8.CC-L 8.C-	8C-L	12r	12r	sf
!	!	!	!	!LO:HP:b=2
.	.	6e-	12fL	>
.	8GG-J	.	.	)
.	.	.	12G-J 12c- 12g-	)
16FFFJk 16FF	.	.	.	)
2FFF 2FF	8r	12r	12r	]
.	.	6c-	12c-L 12gn	.
.	8E-	.	.	.
.	.	.	12A-J 12e- 12a-	.
.	8B-L	12r	12r	.
.	.	6e-	12e-L 12b-	.
.	8A-J	.	.	.
.	.	.	12c-J 12a- 12cc-	.
!!LO:LB:g=original
=174	=174	=174	=174	=174
4FF 4F	8FL	12ra	12raa	.
.	.	[6cc-	12ddnL	.
.	8E-J	.	.	.
.	.	.	12e-J 12ee-	.
4GG- 4G-	8G-L	12cc-]	12r	.
.	.	[6b-	12b-L 12dd	.
.	8E-J	.	.	.
.	.	.	12e-J 12ee-	.
4AA- 4A-	8A-L	12b-]	12r	.
.	.	6a-	12a-L 12dd	.
.	8E-J	.	.	.
.	.	.	12e-J 12cc- 12ee-	.
=175	=175	=175	=175	=175
2AAn 2A	8AnL	12r	12r	.
.	.	6g-	12g-L 12ddn	.
.	8E-J	.	.	.
.	.	.	12e-J 12cc- 12ee-	.
.	8e-L	12r	12r	.
.	.	6cc-	12fL	.
.	8E-J	.	.	.
.	.	.	12g-J 12ff	.
4AA 4A	8AL	12r	12r	.
.	.	6g-	12g-L 12dd	>
.	8E-J	.	.	.
.	.	.	12e-J 12cc- 12ee-	.
=176	=176	=176	=176	=176
2BB- 2B-	8B-L	12r	12r	.
.	.	6g-	12g-L 12ddn	.
.	8G-J	.	.	.
.	.	.	12e-J 12b- 12ee-	.
.	8e-L	12r	12r	.
.	.	6b-	12fL	.
.	8G-J	.	.	.
.	.	.	12g-J 12ff	.
4BB- 4B-	8B-L	12r	12r	.
.	.	6b-	12b-L 12ddn	.
.	8G-J	.	.	.
.	.	.	12e-J 12ee-	.
=177	=177	=177	=177	=177
2C- 2c-	8c-L	12r	12r	.
.	.	6a	12anL 12ddn	.
.	8G-J	.	.	.
.	.	.	12e-J 12ee-	.
.	8e-L	12r	12r	.
.	.	6a	12fL	.
.	8G-J	.	.	.
.	.	.	12g-J 12ff	.
4C- 4c-	8c-L	12r	12r	.
.	.	6a	12aL 12dd	.
.	8G-J	.	.	.
.	.	.	12e-J 12ee-	.
!!LO:LB:g=original
=178	=178	=178	=178	=178
4Cn 4c	8cnL	12r	12r	p
.	.	6a	12anL 12ddn	.
.	8FJ	.	.	.
.	.	.	12e-J 12ee-	.
4BB- 4B-	8B-L	12r	12r	.
.	.	6b-	12cc#XL	.
.	8FJ	.	.	.
.	.	.	12dnJ 12dd	.
4FF 4F	8FL	12r	12r	.
.	.	6b-	12b-L 12een	.
.	8DnJ 8B-	.	.	.
.	.	.	12dJ 12ff	.
=179	=179	=179	=179	=179
4BB- 4B-	8B-L	12r	12r	.
.	.	6g	12gnL 12ccn	.
.	8E-J	.	.	.
.	.	.	12d-J 12dd-	.
4AA- 4A-	8A-L	12r	12r	<
.	.	6a-	12bnL	.
.	8E-J	.	.	.
.	.	.	12cnJ 12cc	.
*v	*v	*	*	*
4AAA- 4AA-	12r	12r	.
.	6A-	12A-L 12dn	.
.	.	12E-J 12cn 12e-	.
=180	=180	=180	=180
8AAAn 8AAn	12r	12r	.
.	6F#	12F#XL 12dn	.
8AA	.	.	.
.	.	12E-J 12cn 12e-	.
8FL	12r	12r	.
.	6c	12cL 12fn	.
8E-J	.	.	.
.	.	12F#XJ 12e- 12f#X	.
8cnL	12r	12r	.
.	6f#	12f#L 12bn	.
8F#XJ	.	.	.
.	.	12cJ 12ccn	.
=181	=181	=181	=181
8AAnL	12r	12r	.
.	6f#	12f#XL 12ddn	.
8F#XJ	.	.	.
.	.	12e-J 12ccn 12ee-	.
8e-L	12r	12r	.
.	6cc	12ccL 12ffn	.
8F#J	.	.	.
.	.	12f#XJ 12ff#X	.
8f#XL	12r	12r	.
.	6ff#	12ff#L 12bbn	.
8AAJ	.	.	.
.	.	12ccJ 12ee- 12cccn	.
*	*v	*v	*
!!LO:LB:g=original
=182	=182	=182
*k[b-e-a-]	*k[b-e-a-]	*
*	*^	*
[8qBB-	.	.	.
4BB-] 4G 4e- 4g	4ryy	4b- 4ee- 4bb-	.
!	!	!	!LO:HP:b=2
4An	12r	12r	<
.	6g	12gL 12ddn	(
.	.	12e-J 12ee-	(
4B-	12r	12r	(
.	6g	12gL 12dd	(
.	.	12e-J 12ee-	[
=183	=183	=183	=183
!	!	!	!LO:HP:b=2
4dn	12r	12r	>
.	6ee-	12ff#XL	)
.	.	12gJ 12gg	)
4c	12r	12r	)
.	6ee-	12ff#L	)
.	.	12gJ 12gg	)
4B-	12r	12r	)
.	6ee-	12ee-L 12bb-	)
.	.	12gJ	]
*	*v	*v	*
=184	=184	=184
*^	*	*
[2.BB- [2.F [2.e-	2.A-	4bb-	.
.	.	4ccc	.
.	.	4bb-	.
=185	=185	=185	=185
2.BB-_ 2.F_ 2.e-]	2.A-	16%3aa-	.
.	.	16%3ff	.
.	.	16%3ee-	.
.	.	16%3cc	.
*v	*v	*	*
=186||	=186||	=186||
*M6/8	*M6/8	*
*^	*	*
8BB-] 8F] 8d	8A-	8b-L	.
8r	8r	8an	.
8r	8r	8b-J	.
4r	4r	8bnL	.
.	.	8cc	.
8r	8r	8dd-XJ	.
!!LO:LB:g=original
=187	=187	=187	=187
*	*	*^	*
4.B-	16%3gL	2.a-	8ddnL	p <
.	.	.	8cc	(
.	16%3fJ	.	.	(
.	.	.	8ddJ	(
8cL	4.e-	.	8ee-L	(
8c-X	.	.	8ff	(
8FJ	.	.	8aa-J	[
=188	=188	=188	=188	=188
8B-	8d	4.a-	4.gg	.
8ryy	8AAAnL 8AAn	.	.	.
8ryy	8BBB-J 8BB-	.	.	.
4.ryy	8CC-XL 8C-X	4.ryy	4.e- 4.a- 4.ff	.
.	8DD-X 8D-X	.	.	.
.	8CCnJ 8C-	.	.	.
=189	=189	=189	=189	=189
4.BB- 4.f	[2.F [2.A-	2.a-	8ddL	<
.	.	.	8cc	(
.	.	.	8ddJ	(
4.C-X 4.e-	.	.	32%3ee-L	(
.	.	.	32%3ff	(
.	.	.	32%3bb-	(
.	.	.	32%3aa-J	[
=190	=190	=190	=190	=190
8BB- 8d	8F] 8A-]	4.a-	4gg	.
8AAAnL 8AAn	4ryy	.	.	.
8BBB-J 8BB-	.	.	8ff	.
8CCL 8C	4.ryy	4.ryy	4.B- 4.f 4.a- 4.b-	.
8DD-X 8D-X	.	.	.	.
8DDnJ 8Dn	.	.	.	.
=191	=191	=191	=191	=191
2.EE- 2.E-	4.BB- 4.B-	4.B- 4.e- 4.g	8b-L	.
.	.	.	8an	.
.	.	.	8b-J	.
.	4.AAn 4.An	4.g	8bnL	.
.	.	.	8cc	.
.	.	.	8cc#XJ	.
!!LO:LB:g=original
=192	=192	=192	=192	=192
4.DD 4.AAn 4.D	8AnL	4.f#X	4dd	.
.	8G#X	.	.	.
.	8AJ	.	8cc#X	.
4.D	8e-L	4.f# 4.dd	8ccnL	.
.	8d	.	8b-	.
.	8cJ	.	8anJ	.
*v	*v	*	*	*
=193	=193	=193	=193
4.GGn 4.D 4.B-/	4.g	8ddL	.
.	.	8cc#X	.
.	.	8dJ 8dd	.
4GG-X 4C 4B-/	4b-	8e-L 8ee-	.
.	.	8en 8een	.
8FF 8C 8An/	[8an	[8fJ [8ff	.
=194	=194	=194	=194
8FFF 8FF	8ryy	8fL] 8a] 8ff]	.
4FF 4F	4e- 4an	8dd	.
.	.	8ccJ	.
4BB- 4F	4.ryy	8e-L 8a-X 8cc	.
.	.	8d 8b-	.
8r	.	8cJ 8ee-	.
=195	=195	=195	=195
*^	*	*	*
4.B-	16%3gL	2.a-	8ddL	.
.	.	.	8cc	.
.	16%3fJ	.	.	.
.	.	.	8ddJ	.
8cL	4.e-	.	8ee-L	.
8c-X	.	.	8ff	.
8FJ	.	.	8aa-J	.
=196	=196	=196	=196	=196
8B-	8d	4.a-	4.gg	.
8ryy	8AAAnL 8AAn	.	.	.
8ryy	8BBB-J 8BB-	.	.	.
4.ryy	8CC-XL 8C-X	4.ryy	4.e- 4.a- 4.ff	.
.	8DD-X 8D-X	.	.	.
.	8CC-J 8C-	.	.	.
!!LO:LB:g=original
=197	=197	=197	=197	=197
4.BB- 4.f	[2.F [2.A-	2.a-	8ddL	.
.	.	.	8cc	.
.	.	.	8ddJ	.
4.C- 4.e-	.	.	40%3ee-L	.
.	.	.	40%3ff	.
.	.	.	40%3gg	.
.	.	.	40%3bb-	.
.	.	.	40%3aa-J	.
=198	=198	=198	=198	=198
8BB- 8d-	8F] 8A-]	4a-	4gg	.
8ryy	8BBB-L 8BB-	.	.	p
8ryy	8BBBnJ 8BBn	8ryy	8f 8a- 8dd 8ff	.
4.ryy	8CCL 8C	4.ryy	8cL 8f 8a- 8cc	.
.	8DD-X 8D-X	.	8c-X 8f 8a- 8cc-X	.
.	8DDnJ 8Dn	.	8B-J 8f 8a- 8b-	.
=199	=199	=199	=199	=199
4.EE- 4.E-	16%3BB-L 16%3B-	4.g	8b-L	.
.	.	.	8an	.
.	16%3BB-J 16%3B-	.	.	.
.	.	.	8b-J	.
8.r	[4.BB- [4.B-	4.d-X 4.g-X	8dd-XL	.
.	.	.	8cc	.
8.EEn 8.En	.	.	.	.
.	.	.	8b-J	.
=200	=200	=200	=200	=200
8FF 8F	4BB-] 4B-]	8dn 8f\	8b-	.
8rFF	.	4b-\	8b-L 8een	pp
8D 8B-	8ryy	.	8fJ 8ff	.
8FL 8d	4.ryy	4.ryy	8b-L 8ff 8bb-	.
8B-> 8f>	.	.	8dd 8bb- 8ddd	.
8d>J 8b->	.	.	8ffJ 8bb- 8fff	.
=201	=201	=201	=201	=201
4.FF 4.F	16%3BB-L 16%3B-	4.d 4.f	8b-L	.
.	.	.	8an	.
.	16%3BB-J 16%3B-	.	.	.
.	.	.	8b-J	.
8.r	4.BB- 4.B-	4.d-X 4.f-X	8dd-XL	.
.	.	.	8cc	.
8.GG-X 8.G-X	.	.	.	.
.	.	.	8b-J	.
*v	*v	*	*	*
!!LO:LB:g=original
=202	=202	=202	=202
8GGnL 8Gn	4d-X 4e-	8b-L	.
8GG	.	8ee-	.
8E-J	8rd	8ddnJ	.
8e-L	4rd	8dd-XL	.
8E-	.	8b-	.
8e-J	8rG	8d-J 8bn	.
=203	=203	=203	=203
16%3E-L 16%3A- 16%3e-\	4.a-	8cL 8cc	.
.	.	8Bn 8bn	<
16%3AAA-J 16%3AA-	.	.	.
.	.	8cJ 8cc	.
8GGG-XL 8GG-X	4cc	8dnL 8ddn	.
8C 8B-	.	8e- 8ee-	.
8B-J 8b-	8cc	8enJ 8een	.
=204	=204	=204	=204
8FFF 8FF	8r	4.f 4.ff	.
8CL 8F 8An	8e-L 8f	.	.
8CJ 8F 8B-	8e-J 8gn	.	.
8CL 8F 8c	4.an	4.e- 4.ee-	.
8G-X 8g-X	.	.	.
8FJ 8f	.	.	.
=205	=205	=205	=205
16%3FL 16%3B- 16%3f	4.b-	8d-XL 8dd-X	<
.	.	8c 8cc	(
16%3BBB-J 16%3BB-	.	.	(
.	.	8d-J 8dd-	(
8AAA-L 8AA-	4.ryy	8e-L 8dd- 8ee-	(
8D-X 8B-	.	8en 8dd- 8een	(
8B-J 8d-X 8b-	.	8fJ 8dd- 8ff	[
=206	=206	=206	=206
8GGG 8GG	8r	4.g 4.gg	>
8D-XL 8G 8Bn	8fL 8g	.	)
8D-J 8G 8B	8fJ 8an	.	)
8DnL 8G 8Bn	4.bn	4.f 4.ff	)
8A- 8a-	.	.	]
8GJ 8g	.	.	.
!!LO:LB:g=original
=207	=207	=207	=207
16%3CCL 16%3C	4cc	8e-L 8ee-	.
.	.	8d 8dd	.
16%3GGJ 16%3G	.	.	.
.	8g	8cJ 8cc	.
16%3E-L 16%3G 16%3e-	4.g	8BnL 8bn	.
.	.	8c 8cc	.
16%3CCJ 16%3C	.	.	.
.	.	8dJ 8dd	.
=208	=208	=208	=208
8CC-XL 8C-X	4.an	40%3e-L 40%3ee-	.
.	.	40%3f 40%3ff	.
8E- 8An 8e-	.	.	.
.	.	40%3e- 40%3ee-	.
.	.	40%3d 40%3dd	.
8FF#XJ 8F#X	.	.	.
.	.	40%3e-J 40%3ee-	.
4An 4e- 4an	4.ee-	8fL 8ff	.
.	.	8f#X 8ff#X	.
8BBB- 8BB-	.	[8gJ [8gg	.
=209	=209	=209	=209
4G 4e-	4.b-	8gL] 8gg]	.
.	.	8f#X 8ff#X	.
*clefG2	*	*	*
8B-	.	8gJ 8gg	.
8gL 8ee-	4.gg	8anL 8aan	.
8B-J	.	8b- 8bb-	.
*clefF4	*	*	*
8BBB- 8BB-	.	[8dd-XJ [8ddd-X	.
=210	=210	=210	=210
4G 4en	4.een	8dd-L] 8ddd-]	.
.	.	8cc 8ccc	.
*clefG2	*	*	*
8B-X	.	8b-J 8bb-	.
8enL 8dd-X	4.ee	4a- 4aa-	.
8B-J	.	.	.
*clefF4	*	*	*
8BBB- 8BB-	.	8g 8gg	.
!!LO:LB:g=original
=211	=211	=211	=211
4A- 4e-	4.cc-X	8fL 8ff	.
.	.	8en 8een	.
*clefG2	*	*	*
8c-X	.	8fJ 8ff	.
8e-L 8cc-X	4.ee	8gL 8gg	.
8c-XJ	.	8a- 8aa-	.
*clefF4	*	*	*
8BBB- 8BB-	.	8cc-XJ 8ccc-X	.
=212	=212	=212	=212
8A-L	4.dd	8b-L 8bb-	.
8d	.	8a- 8aa-	.
[8A-J	.	8gJ 8gg	.
4A-] 4d 4b-	4.dd	4g 4gg	.
8BBB- 8BB-	.	8f 8ff	.
=213	=213	=213	=213
4G 4B-	4.b-	8e-L 8ee-	.
.	.	8d 8dd	.
8B-	.	8e-J 8ee-	.
8e-L 8b-	4.ee-	8fL 8ff	.
8B-	.	8g 8gg	.
8BBB-J 8BB-	.	8e-J 8ee-	.
=214	=214	=214	=214
4G-X 4e-	4.an	8dL 8dd	.
.	.	8c 8cc	.
8G- 8e-	.	8BnJ 8bn	.
4An 4g-X	8a	8cL 8cc	.
.	8cc	8.fJ 8.ff	.
8BBB- 8BB-	8rf	.	.
.	.	16ee-	.
*	*v	*v	*
=215	=215	=215
8FL	4.ee-	.
8e-	.	.
8A-J	.	.
8e-L	8fL	.
8a-J	8dd	.
8r	8ccJ	.
!!LO:LB:g=original
=216	=216	=216
4r	8b-L	.
.	8c	.
8r	8a-J	.
4r	8gL	.
.	8f	<
8BBB- 8BB-	8ccJ	[
=217	=217	=217
8FL	4.aa-	.
8e-	.	.
8A-J	.	.
8e-L	8a-L	.
8ccJ	8gg	.
8r	8ffJ	.
=218	=218	=218
4r	8ee-L	.
.	8f	.
8r	8ccJ	.
4r	8b-L	.
.	8a-	.
8BBB- 8BB-	8ee-J	.
=219	=219	=219
8FL	4.ccc	.
8e-	.	.
8A-J	.	.
8a-L	8ccL	.
8ee-J	8bb-	.
8r	8aa-J	.
=220	=220	=220
2.r	8ggL	.
.	8a-	.
.	8ffJ	.
.	8ee-L	.
.	8dd	.
.	8ccJ	.
=221	=221	=221
2.r	8b-L	>
.	8c	)
.	8a-J	]
.	8gL	.
.	8f	.
.	8gJ	.
!!LO:LB:g=original
=222	=222	=222
*	*^	*
4r	4ryy	8b-L	.
.	.	8c	.
8r	8ryy	8a-J	.
4.BB- 4.B-	4.A- 4.d	8gL	.
.	.	8f	.
.	.	8gJ	.
*	*v	*v	*
=223	=223	=223
*^	*	*
*^	*	*	*
8EE-\	8E-L	8ryy	4.G 4.e-	p
4ryy	8D	[4B-	.	.
.	8CJ	.	.	.
4.ryy	4.BB-	4.B-]	4f	.
.	.	.	8G 8e- 8g	.
=224	=224	=224	=224	=224
8EE-\	8E-L	8ryy	4.f	.
4ryy	8D	[4B-	.	.
.	8CJ	.	.	.
4.ryy	4.BB-	4.B-]	4G 4e- 4g	.
.	.	.	8b-	.
*	*v	*v	*	*
*v	*v	*	*
=225	=225	=225
16EE-LL	8A-L 8f	.
16BB-	.	.
16A-	8e-	.
16F	.	.
16e-	8fJ	.
16a-JJ	.	.
8A-	8cc	.
8r	8ddL	pp
8r	8ee-J	.
=226	=226	=226
2.r	40%3ggL	.
.	40%3ff	.
.	40%3cc	.
.	40%3f	.
.	40%3gJ	.
.	4b-	.
.	8a-	.
!!LO:LB:g=original
=227	=227	=227
*^	*^	*
*^	*	*	*	*
8EE-\	8E-L	8ryy	4ryy	4.A- 4.f	.
4ryy	8D	[4B-	.	.	.
.	8CJ	.	8ryy	.	.
4.ryy	4.BB-	4.B-]	4.d	4g	.
.	.	.	.	8A- 8a-	.
=228	=228	=228	=228	=228	=228
8EE-\	8E-L	8ryy	4ryy	4g	.
4ryy	8D	[4B-	.	.	.
.	8CJ	.	8ryy	[8A- [8e-	.
4.ryy	4.BB-	4.B-]	8ryy	8A-L] 8e-]	.
.	.	.	4A- 4d	8f	.
.	.	.	.	8gJ	.
*	*v	*v	*	*	*
*v	*v	*	*	*
=229	=229	=229	=229
16EEE-LL 16EE-\	4.G 4.e-	8b-L	.
16BB-	.	.	.
16G	.	8an	.
16e-	.	.	.
16B-	.	8b-J	.
16GJJ	.	.	.
8b-	4re	8ee-	.
!	!	!	!LO:DY:a=1
8r	.	8ff#XL	pp
8r	8re	8ggJ	.
=230	=230	=230	=230
*^	*	*	*
4r	4r	4re	40%3cccL	.
.	.	.	40%3bb-	.
.	.	.	40%3ee-	.
.	.	.	40%3g	.
8r	8r	8re	.	.
.	.	.	40%3a-J	.
4.BB-	4G	4.d	8b-L	.
.	.	.	8g	.
.	8A-	.	8fJ	.
*	*	*v	*v	*
=231	=231	=231	=231
*^	*	*	*
8EE-\	8E-L	8ryy	4.G 4.e-	pp
4ryy	8D	[4B-	.	.
.	8CJ	.	.	.
4.ryy	4.BB-	4.B-]	4f	.
.	.	.	8G 8e- 8g	.
!!LO:LB:g=original
=232	=232	=232	=232	=232
8EE-\	8E-L	8ryy	4.f	.
4ryy	8D	[4B-	.	.
.	24CL	.	.	.
.	24D	.	.	.
.	24CJJ	.	.	.
4.ryy	4.BB-	4.B-]	4G 4e- 4g	.
.	.	.	8b-/	.
*	*v	*v	*	*
*v	*v	*	*
=233	=233	=233
16EEE-LL 16EE-	8fL	.
16BB-	.	.
16A-	8e-	.
16F	.	.
16e-	8fJ	.
16a-JJ	.	.
8A-	32%3cc	.
.	32%3ee-L	ppp
8r	.	.
.	32%3ff	.
8r	.	.
.	32%3aa-J	.
=234	=234	=234
2.r	56%3dddLL	.
.	56%3ccc	.
.	56%3aa-	.
.	56%3ff	.
.	56%3cc	.
.	56%3f	.
.	56%3gJJ	.
.	4b-	.
.	8a-	.
=235	=235	=235
*^	*^	*
*^	*	*	*	*
8EE-\	8E-L	8ryy	4ryy	4.A- 4.f	.
4ryy	24DL	[4B-	.	.	.
.	24E-	.	.	.	.
.	24D	.	.	.	.
.	24C	.	8ryy	.	.
.	24D	.	.	.	.
.	24C	.	.	.	.
4.ryy	24BB-	4.B-]	8r	8gL	.
.	24C	.	.	.	.
.	24BB-	.	.	.	.
.	24C	.	4A- 4d	8b-	.
.	24BB-	.	.	.	.
.	24C	.	.	.	.
.	24BB-	.	.	8a-J	.
.	24C	.	.	.	.
.	24BB-JJ	.	.	.	.
!!LO:LB:g=original
=236	=236	=236	=236	=236	=236
8EE-\	8E-L	8ryy	8r	8gL	.
4ryy	24DL	[4B-	4A-	8f	.
.	24E-	.	.	.	.
.	24D	.	.	.	.
.	24C	.	.	8e-J	.
.	24D	.	.	.	.
.	24C	.	.	.	.
4.ryy	24BB-	4.B-]	4.A- 4.d	4f	.
.	24C	.	.	.	.
.	24BB-	.	.	.	.
.	24C	.	.	.	.
.	24BB-	.	.	.	.
.	24C	.	.	.	.
.	24BB-	.	.	8g	.
.	24C	.	.	.	.
.	24BB-JJ	.	.	.	.
*	*	*	*v	*v	*
*	*v	*v	*	*
*v	*v	*	*
=237||	=237||	=237||
*M3/4	*M3/4	*
*	*^	*
8EE-L	4ryy	4G 4e- 4b-	.
8BB-J	.	.	.
8GL	12r	12r	.
.	6b-	12b-L 12dd	.
8B-J	.	.	.
.	.	12e-J 12ee-	.
8e-L	12r	12r	.
.	6ee-	12ee-L 12ff#X	.
8B-J	.	.	.
.	.	12gJ 12gg	.
=238	=238	=238	=238
6G 6b-	12r	12r	.
.	6ee-	12ee-L 12aan	.
12r	.	12b-J 12bb-	.
12r	4ryy	4bb- 4bbb-	.
12dL	.	.	.
12cJ	.	.	.
12B-L	4ryy	4r	.
12A-	.	.	.
12GJ	.	.	.
!!LO:LB:g=original
=239	=239	=239	=239
*^	*	*	*
12FL	2.F	4ryy	12r	pp
12BB-	.	.	12A-L 12c	.
12EE-J	.	.	12B-J 12d	.
8B-L	.	12r	12r	.
.	.	6d	12dL 12g	.
8BB-J	.	.	.	.
.	.	.	12a-J	.
8B-L	.	12r	12r	.
.	.	6a-	12a-L 12b-	.
8BB-J	.	.	.	.
.	.	.	12dJ 12cc	.
=240	=240	=240	=240	=240
12GL	4G	12r	12r	.
12BB-	.	6g	12gL 12b-	.
12EE-J	.	.	12dJ 12cc	.
12A-L	4A-	12r	12r	.
12BB-	.	6f	12fL 12b-	.
12EE-J	.	.	12dJ 12cc	.
12cL	4c	12r	12r	.
12BB-	.	6f	12fL 12a-	.
12EE-J	.	.	12dJ 12b-	.
=241	=241	=241	=241	=241
12B-L	4B-	12r	12r	.
12BB-	.	6g	12gL 12b-	.
12EE-J	.	.	12e-J 12cc	.
12A-L	4A-	12r	12r	.
12BB-	.	6f	12fL 12cc	.
12EE-J	.	.	12dJ 12b- 12dd	.
12GL	4G	4ryy	12r	.
12BB-	.	.	12e-L 12cc 12ee-	.
12EE-J	.	.	12cJ	.
*	*	*v	*v	*
=242	=242	=242	=242
12FL	2.F	12dL	.
12BB-	.	12dd 12ff	.
12EE-J	.	12B-J	.
12B-L	.	12r	.
12BB-	.	12ddL 12ff 12bb-	.
12B-J	.	12b-J	.
12BB-L	.	12r	.
12B-	.	12b-L 12dd 12ff	.
12BB-J	.	12fJ	.
!!LO:LB:g=original
=243	=243	=243	=243
12BB-L	4F	12r	.
12EE-	.	12A-L 12c	.
12BB-J	.	12b-J	.
12EL	4En	12r	.
12BB-	.	12A-L 12d-X	.
12EE-J	.	12b-J	.
12FL	4F	12r	.
12BB-	.	12A-L 12dn	.
12EE-J	.	12b-J	.
=244	=244	=244	=244
12GL	4G	12r	.
12BB-	.	12cL 12e-	.
12EE-J	.	12b-J	.
12A-L	4A-	12r	.
12BB-	.	12dL 12f	.
12EE-J	.	12b-J	.
12cL	4c	12r	.
12BB-	.	12fL 12a-	.
12EE-J	.	12b-J	.
=245	=245	=245	=245
12B-L	4B-	12r	.
12BB-	.	12e-L 12g	.
12EE-J	.	12ccJ	.
12A-L	4A-	12r	.
12BB-	.	12dL 12f	.
12EE-J	.	12ddJ	.
12GL	4G	12r	.
12BB-	.	12cL 12e-	.
12EE-J	.	12ee-J	.
=246	=246	=246	=246
12FL	4F	12r	.
12BB-	.	12B-L 12d	.
12EE-J	.	12ffJ	.
12fL	12ryy	12r	.
12B-	6B-	12a-L 12dd	.
12E-J	.	12bb-J	.
12fL	12ryy	12r	.
12B-	6B-	12a-L 12dd	.
12E-J	.	12ffJ	.
!!LO:LB:g=original
=247	=247	=247	=247
*	*	*^	*
8E-L	4E-	12r	12r	pp
.	.	6G	12GL 12d	.
8EE-J	.	.	.	.
.	.	.	12e-J	.
8DL	4D	12ryy	12g	.
.	.	6G	12GL 12d	.
8B-J	.	.	.	.
.	.	.	12e-J	.
8CL	4C	4ryy	12b-	.
.	.	.	12r	.
8EE-J	.	.	.	.
.	.	.	12r	.
=248	=248	=248	=248	=248
8BB-L	4BB-	12r	12r	.
.	.	6A-	12A-XL 12an	.
8EE-J	.	.	.	.
.	.	.	12dJ 12b-	.
12BB-L	4ryy	4ryy	12cc/	.
12G	.	.	12dL 12b-	.
12A-J	.	.	12ccJ	.
8A-L 8d	4ryy	4b-	6gg	.
8BB-J	.	.	.	.
.	.	.	12ff	.
=249	=249	=249	=249	=249
8B-L	4E-	12r	12r	ppp
.	.	6g	12gL 12dd	.
8EE-J	.	.	.	.
.	.	.	12ee-J	.
8e-L	4D	12ryy	12gg/	.
.	.	6g	12gL 12dd	.
8GJ	.	.	.	.
.	.	.	12ee-J	.
8B-L	4C	4ryy	12bb-/	.
.	.	.	12r	.
8EE-J	.	.	.	.
.	.	.	12r	.
=250	=250	=250	=250	=250
8A-L 8d	4BB-	12r	12r	.
*	*	*	*8va	*
.	.	6a-	12a-XL 12aan	.
8EE-J	.	.	.	.
.	.	.	12bb-J	.
12BB-L	4ryy	4ryy	12ccc/	.
12A-	.	.	12ddL 12bb-	.
[12dJ	.	.	12cccJ	.
8A-L 8d] 8b-	4ryy	4bb-	6ggg	.
8BB-J	.	.	.	.
.	.	.	12fff	.
*	*	*	*X8va	*
!!LO:LB:g=original
=251	=251	=251	=251	=251
4EE-	12EE-L	12r	12r	.
.	12E-	6B-	12B-L 12f#X	>
.	12BB-J	.	12GJ 12e- 12g	.
4GG	12GGL	12r	12r	.
.	12G	6e-	12e-L 12an	.
.	12E-J	.	12B-J 12g 12b-	.
4BB-	12BB-L	12r	12r	.
.	12B-	6g	12gL 12dd	.
.	12GJ	.	12e-J 12b- 12ee-	.
=252	=252	=252	=252	=252
4E-	12E-L	12r	12r	.
.	12e-	6b-	12b-L 12ff#X	.
.	12B-J	.	12gJ 12ee- 12gg	.
4G	12GL	12r	12r	.
.	12g	6ee-	12ee-L 12aan	.
.	12e-J	.	12b-J 12gg 12bb-	.
4B-	12B-L	12r	12r	.
.	12b-	6gg	12ggL 12ddd	.
.	12gJ	.	12ee-J 12bb- 12eee-	.
*	*clefG2	*	*	*
=253	=253	=253	=253	=253
2.e-	12e-L	12r	12r	.
*	*	*	*8va	*
.	12ee-	6bb-	12bb-L 12fff#X	.
.	12b-J	.	12ggJ 12eee- 12ggg	.
.	12e-L	12ryy	12raa	.
.	12ee-	6bb-	12bb-L 12fff#	.
.	12b-J	.	12ggJ 12eee- 12ggg	.
.	12e-L	12ryy	12raa	.
.	12ee-	6bb-	12bb-L 12fff#	.
.	12b-J	.	12ggJ 12eee- 12ggg	.
=254	=254	=254	=254	=254
4e-	12e-L	12ryy	12raa	.
.	12ee-	6bb-	12bb-L 12fff#X	.
.	12b-J	.	12ggJ 12eee- 12ggg	.
*	*	*	*X8va	*
4r	4r	4r	4r	.
4r	4r	4r	4r	.
*	*clefF4	*	*	*
!!LO:LB:g=original
=255	=255	=255	=255	=255
4EE-	12EE-L	12r	12r	pppp
.	12E-	6d-	12d-XL 12f#X	.
.	12BB-J	.	12GJ 12g	.
4GG	12GGL	12r	12r	.
.	12G	6e-	12e-L 12an	.
.	12E-J	.	12d-J 12b-	.
4BB-	12BB-L	12r	12r	.
.	12d-X	6b-	12b-L 12ddn	.
.	12GJ	.	12e-J 12ee-	.
=256	=256	=256	=256	=256
4E-	12E-L	12r	12r	.
.	12e-	6dd-	12dd-XL 12ff#X	.
.	12B-J	.	12gJ 12gg	.
4G	12GL	12r	12r	.
*	*	*	*8va	*
.	12g	6ee-	12ee-L 12aan	.
.	12e-J	.	12dd-J 12bb-	.
*	*clefG2	*	*	*
4B-	12B-L	12ryy	12raa	.
.	12dd-X	6bb-	12bb-L 12ddd	.
.	12gJ	.	12ee-J 12eee-	.
=257	=257	=257	=257	=257
4e-	12e-L	12ryy	12raa	.
.	12ee-	6ddd-	12ddd-XL 12fff#X	.
.	12b-J	.	12ggJ 12ggg	.
4e-	12e-L	12ryy	12raa	.
.	12ee-	6ddd-	12ddd-L 12fff#	.
.	12b-J	.	12ggJ 12ggg	.
4e-	12e-L	12ryy	12raa	.
.	12ee-	6ddd-	12ddd-L 12fff#	.
.	12b-J	.	12ggJ 12ggg	.
=258	=258	=258	=258	=258
4e-	12e-L	12ryy	12raa	.
.	12ee-	6ddd-	12ddd-XL 12fff#X	.
.	12b-J	.	12ggJ 12ggg	.
*	*	*	*X8va	*
*	*	*v	*v	*
*v	*v	*	*
4r	4r	.
4r	4r	.
*clefF4	*clefF4	*
!!LO:LB:g=original
=259	=259	=259
*k[]	*k[]	*
*^	*^	*^
!	!	!	!	!LO:HP:b=2	!
4GGG#X 4GG#	8GG#XL	12r	12r	<	f
.	.	6D#	12D#XL 12A#X	(	.
.	8DD#XJ	.	.	(	.
.	.	.	12BBJ 12G#X 12B	(	.
4BBB 4BB	8BBL	12r	12r	(	.
.	.	6G#	12G#L 12c##X	(	.
.	8GG#J	.	.	(	.
.	.	.	12D#J 12B 12d#X	(	.
4DD#X 4D#	8D#XL	12r	12r	(	.
.	.	6G#	12G#L 12A#	(	.
.	8BBJ	.	.	(	.
.	.	.	12BJ	[	.
*	*	*v	*v	*	*
*	*	*clefG2	*	*
=260	=260	=260	=260	=260
*	*	*^	*	*
!	!	!	!	!LO:HP:b=2	!LO:HP:a=1
8.EEL 8.E	8EL	12r	4G#X 4g#X	>	<
.	.	12G#L 12c#X	.	)	(
.	8BBJ	.	.	)	(
.	.	12C##XJ 12c##X	.	)	(
16BBBJk 16BB	.	.	.	)	(
2BBB 2BB	8BBL	12r	4B 4b	]	(
.	.	12d#XL 12f##X	.	.	(
.	8D#XJ	.	.	.	(
.	.	12G#J 12g#	.	.	(
.	8G#XL	12r	4d#X 4dd#X	.	(
.	.	12d#L 12f##	.	.	(
.	8D#J	.	.	.	(
.	.	12G#J 12g#	.	.	[
*	*	*v	*v	*	*
=261	=261	=261	=261	=261
!	!	!	!LO:DY:c	!LO:HP:a=1
4ryy	12GGG#XL 12GG#X	8.eL 8.ee	sf	>
.	12EE 12E	.	.	)
.	12BBJ 12B	.	.	)
.	.	16BJk 16b	.	)
12r	12r	4B 4b	.	]
6E	12EL 12A#X	.	.	.
.	12BBJ 12B	.	.	.
4ryy	4EEE 4EE	12g#XL 12ee	<	.
.	.	12e	(	.
.	.	12G#XJ	(	.
*	*	*	*v	*v
*v	*v	*	*
*	*clefF4	*
=262	=262	=262
4FFF#X 4FF#X	12AL 12e	(
.	12E	(
.	12AAJ	(
4GGG 4GG	12BB-XL 12E	(
.	12EE	(
.	12BB-J 12E	(
4GGG#X 4GG#X	12EEL	(
.	12BBn 12E	(
.	12EEJ	[
!!LO:LB:g=original
=263	=263	=263
*^	*^	*^
!	!	!	!	!LO:HP:b=2	!
4AAA 4AA	8AAL	12r	12r	<	f
.	.	6E	12EL 12B	(	.
.	8EEJ	.	.	(	.
.	.	.	12CJ 12A 12c	(	.
4CC 4C	8CL	12r	12r	(	.
.	.	6A	12AL 12d#X	(	.
.	8AAJ	.	.	(	.
.	.	.	12EJ 12c 12e	(	.
4EE 4E	8EL	12r	12r	(	.
.	.	6A	12AL 12B	(	.
.	8CJ	.	.	(	.
.	.	.	12cJ	[	.
*	*	*v	*v	*	*
*	*	*clefG2	*	*
=264	=264	=264	=264	=264
*	*	*^	*	*
!	!	!	!	!LO:HP:b=2	!LO:HP:a=1
8.FFL 8.F	8FL	12r	4A 4a	>	<
.	.	12AL 12d	.	)	(
.	8CJ	.	.	)	(
.	.	12D#XJ 12d#X	.	)	(
16CCJk 16C	.	.	.	)	(
2CC 2C	8CL	12r	4c 4cc	]	(
.	.	12eL 12g#X	.	.	(
.	8EJ	.	.	.	(
.	.	12AJ 12a	.	.	(
.	8AL	12r	4e 4ee	.	(
.	.	12eL 12g#	.	.	(
.	8EJ	.	.	.	(
.	.	12AJ 12a	.	.	[
*	*	*	*	*v	*v
*	*	*v	*v	*
=265	=265	=265	=265
!	!	!	!LO:HP:a=1
4ryy	12AAAL 12AA	8.fL 8.ff	>
.	12FF 12F	.	)
.	12CJ 12c	.	)
.	.	16cJk 16cc	)
12r	12r	4c 4cc	]
6F	12FL 12B	.	.
.	12CJ 12c	.	.
4ryy	4FFF 4FF	12aL 12ff	.
.	.	12f	.
.	.	12AJ	.
*v	*v	*	*
*	*clefF4	*
=266	=266	=266
4GGG 4GG	12B-XL 12f	<
.	12F	(
.	12BB-XJ	(
4AAA-X 4AA-X	12C-XL 12F	(
.	12FF	(
.	12C-J 12F	(
4AAAn 4AAn	12FFL	(
.	12Cn 12F	(
.	12FFJ	[
!!LO:LB:g=original
=267	=267	=267
*k[b-e-a-d-g-c-]	*k[b-e-a-d-g-c-]	*
*^	*^	*^
!	!	!	!	!LO:HP:b=2	!LO:DY:c
4BBB- 4BB-	8BB-L	12r	12r	<	p
.	.	6F	12FL 12cn	(	.
.	8FFJ	.	.	(	.
.	.	.	12D-J 12B- 12d-	(	.
4DD- 4D-	8D-L	12r	12r	(	.
.	.	6B-	12B-L 12en	(	.
.	8BB-J	.	.	(	.
.	.	.	12FJ 12d- 12f	(	.
*	*	*	*clefG2	*	*
4FF 4F	8FL	12r	12r	(	.
.	.	6d-	12d-L 12an	(	.
.	8D-J	.	.	(	.
.	.	.	12B-J 12f 12b-	[	.
*	*	*	*	*v	*v
=268	=268	=268	=268	=268
!	!	!	!	!LO:DY:b=2
8.GG-L 8.G-	8G-L	12r	12r	sf
.	.	6f-	12f-XL 12b--	.
.	8D-J	.	.	.
.	.	.	12B-XJ 12b-X	.
16GGG-Jk 16GG-	.	.	.	.
4GGG- 4GG-	4ryy	12r	12r	.
.	.	6B-	12B-L 12e-	.
.	.	.	12F-XJ 12f-	.
4G- 4g-	8g-L	12r	12r	.
.	.	6b-	12b-L 12ee-	.
.	8d-J	.	.	.
.	.	.	12f-J 12ff-X	.
*	*	*	*clefF4	*
=269	=269	=269	=269	=269
!	!	!	!	!LO:HP:b=2
4CC- 4C-	8C-L	12r	12r	<
.	.	6G-	12G-L 12dn	(
.	8GG-J	.	.	(
.	.	.	12E-J 12c- 12e-	(
4EE- 4E-	8E-L	12r	12r	(
.	.	6c-	12c-L 12f	(
.	8C-J	.	.	(
.	.	.	12G-J 12e- 12g-	(
*	*	*	*clefG2	*
4GG- 4G-	8G-L	12r	12r	(
.	.	6e-	12e-L 12b-	(
.	8E-J	.	.	(
.	.	.	12c-J 12g- 12cc-	[
=270	=270	=270	=270	=270
!	!	!	!	!LO:DY:b=2
8.GGnL 8.G	8GnL	12r	12r	sf
.	.	6e-	12e-L 12b-	.
.	8E-J	.	.	.
.	.	.	12c-J 12gn 12cc-	.
16CC-Jk 16C-	.	.	.	.
4CC- 4C-	8C-L	12r	12r	.
.	.	6c-	12c-L 12g-X	.
.	8GGJ	.	.	.
.	.	.	12GnJ 12e- 12gn	.
4G 4g	8gnL	12r	12r	.
.	.	6ee-	12ee-L 12bb-	.
.	8e-J	.	.	.
.	.	.	12cc-J 12ggn 12ccc-	.
!!LO:LB:g=original
=271	=271	=271	=271	=271
!	!	!	!	!LO:HP:b=2
4CC- 4C-	8C-L	12r	12r	<
.	.	6G	12GnL 12d-	(
.	8GGnJ	.	.	(
.	.	.	12E-J 12c- 12e-	(
4EE- 4E-	8E-L	12r	12r	(
.	.	6c-	12c-L 12g-X	(
.	8C-J	.	.	(
.	.	.	12GJ 12e- 12gn	(
4GG 4G	8GnL	12r	12r	(
.	.	6e-	12e-L 12b-	(
.	8E-J	.	.	(
.	.	.	12c-J 12g 12cc-	[
=272	=272	=272	=272	=272
!	!	!	!	!LO:DY:b=2
8.AA-L 8.A-	8A-L	12r	12r	sf
.	.	6e-	12e-L 12b-	.
.	8E-J	.	.	.
.	.	.	12c-J 12a- 12cc-	.
16CC-Jk 16C-	.	.	.	.
4CC- 4C-	8C-L	12r	12r	.
.	.	6e-	12e-L 12gn	.
.	8E-J	.	.	.
.	.	.	12A-J 12a-	.
4A- 4a-	8a-L	12r	12r	.
.	.	6ee-	12ee-L 12bb-	.
.	8e-J	.	.	.
.	.	.	12cc-J 12aa- 12ccc-	.
=273	=273	=273	=273	=273
8.AAnzL 8.Az	8AnL	12r	12r	f
.	.	6e-	12e-L 12b-	.
.	8G-J	.	.	.
.	.	.	12c-J 12g- 12cc-	.
16CC-Jk 16C-	.	.	.	.
4CC- 4C-	8C-L	12r	12r	.
.	.	6e-	12e-L 12a-X	.
.	8G-J	.	.	.
.	.	.	12AnJ 12an	.
4ryy	4An 4c- 4e- 4an	4ryy	12ddnL	.
.	.	.	12ee-	.
.	.	.	12ffJ	.
*	*	*v	*v	*
*v	*v	*	*
=274	=274	=274
*	*8va	*
4An 4c- 4e- 4an	12gg-\L	.
.	12bb-	.
.	12ccc-J	.
4r	12dddnL	.
.	12eee-	.
.	12fffJ	.
4r	12ggg-L	.
.	12ggg-	.
.	12gggg-J	.
*	*X8va	*
!!LO:LB:g=original
=275	=275	=275
4BBB- 4BB-	2.gg- 2.eee- 2.ggg-	sff
12DnL	.	.
12E-	.	.
12FJ	.	.
12G-L	.	.
12B-	.	.
12c-J	.	.
=276	=276	=276
12dn>L	2gg- 2eee- 2ggg-	.
12e->	.	.
12f>J	.	.
12g->L	.	.
12b->	.	.
12cc->J	.	.
12ddn>L	4gg- 4eee- 4ggg-	.
12ee->	.	.
12ff>J	.	.
=277	=277	=277
4gg->	4eee- 4ggg-	.
4r	12g-\L	.
.	12b-	.
.	12cc-J	.
4E- 4c- 4g-	12ddnL	.
.	12ee-	.
.	12ffJ	.
=278	=278	=278
*	*8va	*
4E- 4c- 4g-	12gg-\L	.
.	12bb-	.
.	12ccc-J	.
4r	12dddnL	.
.	12eee-	.
.	12fffJ	.
4r	12ggg-L	.
.	12ggg-	.
.	12gggg-J	.
*	*X8va	*
!!LO:LB:g=original
=279	=279	=279
4BBB- 4BB-	2.bb- 2.ggg- 2.bbb-	.
12DnL	.	.
12E-	.	.
12FJ	.	.
12G-L	.	.
12B-	.	.
12c-J	.	.
=280	=280	=280
12dn>L	2bb- 2ggg- 2bbb-	.
12e->	.	.
12f>J	.	.
12g->L	.	.
12b->	.	.
12cc->J	.	.
12ddn>L	4bb- 4ggg- 4bbb-	.
12ee->	.	.
12ff>J	.	.
=281	=281	=281
4gg->	4bb- 4ggg- 4bbb-	.
4r	12g-\L	.
.	12b-	.
.	12cc-J	.
4BBB- 4BB-	12ddnL	.
.	12ee-	.
.	12ffJ	.
=282	=282	=282
*^	*	*
4A- 4B- 4dn	2g-	12gg-L	.
.	.	12aa-	.
.	.	12aanJ	.
4BBB- 4BB-	.	12bb-L	.
.	.	12ccc-	.
.	.	12ddd-J	.
8.A- 8.B- 8.d	8.f	12dddnL	.
.	.	12bb-	.
.	.	24bbb-Jk	.
16r	16r	.	.
.	.	24r	.
*v	*v	*	*
!!LO:LB:g=original
=283	=283	=283
*	*^	*^
!	!	!	!LO:HP:b=2	!
12E-L	2.B-	4e-	<	pp
12F	.	.	(	.
12G-J	.	.	[	.
!	!	!	!LO:HP:b=2	!
12A-L	.	4dn	>	.
12G-	.	.	)	.
12FJ	.	.	)	.
12E-L	.	4e-	)	.
12D-	.	.	)	.
12C-J	.	.	]	.
*	*	*	*v	*v
=284	=284	=284	=284
!	!	!	!LO:HP:b=2
12BB-L	2.e-	4F 4f	<
12C-	.	.	(
12D-J	.	.	[
!	!	!	!LO:HP:b=2
12E-L	.	4G- 4g-	>
12D-	.	.	)
12C-J	.	.	)
12BB-L	.	4B- 4b-	)
12AA-	.	.	)
12GG-J	.	.	]
*	*v	*v	*
=285	=285	=285
!	!	!LO:HP:b=2
12FFL	2.B- 2.e- 2.b-	<
12GG-	.	(
12AA-J	.	[
!	!	!LO:HP:b=2
12BB-L	.	>
12AA-	.	)
12GG-J	.	)
12FFL	.	)
12EE-	.	)
12FFJ	.	]
=286	=286	=286
*	*^	*
8.EE-L 8.E-	12r	12r	f
.	6e-	12e-L 12f	.
.	.	12G-J 12g-	.
16BBB-Jk 16BB-	.	.	.
4BBB- 4BB-	12r	12r	.
.	6b-	12b-L 12ff	.
.	.	12g-J 12ee- 12gg-	.
4G- 4e-	12r	12r	.
.	6b-	12b-L 12ddn	.
.	.	12e-J 12ee-	.
!!LO:LB:g=original
=287	=287	=287	=287
*	*	*	*^
!	!	!	!LO:HP:b=2	!
12E-L	2.B-	4e-	<	pp
12F	.	.	(	.
12G-J	.	.	[	.
!	!	!	!LO:HP:b=2	!
12A-L	.	4dn	>	.
12G-	.	.	)	.
12FJ	.	.	)	.
12E-L	.	4e-	)	.
12D-	.	.	)	.
12C-J	.	.	]	.
*	*	*	*v	*v
=288	=288	=288	=288
!	!	!	!LO:HP:b=2
12BB-L	2.e-	4F 4f	<
12C-	.	.	(
12D-J	.	.	[
!	!	!	!LO:HP:b=2
12E-L	.	4G- 4g-	>
12D-	.	.	)
12C-J	.	.	)
12BB-L	.	4B- 4b-	)
12AA-	.	.	)
12GG-J	.	.	]
*	*v	*v	*
=289	=289	=289
!	!	!LO:HP:b=2
12FFL	2.B- 2.e- 2.b-	<
12GG-	.	(
12AA-J	.	[
!	!	!LO:HP:b=2
12BB-L	.	>
12AA-	.	)
12GG-J	.	)
12FFL	.	)
12EE-	.	)
12FFJ	.	]
=290	=290	=290
*	*^	*^
!	!	!	!LO:DY:b=2	!
8.EE-L 8.E-	12r	12r	sf	f
!	!	!	!LO:HP:b=2	!
.	6e-	12e-L 12f	>	.
.	.	12G-J 12g-	)	.
16BBB-Jk 16BB-	.	.	]	.
*	*	*	*v	*v
4BBB- 4BB-	12r	12r	.
.	6b-	12b-L 12ff	.
.	.	12g-J 12ee- 12gg-	.
4G- 4e-	12r	12r	.
.	6b-	12b-L 12ddn	.
.	.	12e-J 12ee-	.
!!LO:LB:g=original
=291	=291	=291	=291
*^	*	*	*
8B-L	4B-	12r	12r	pp
.	.	6b-	12b-L 12ddn	.
8G-J	.	.	.	.
.	.	.	12e-J 12ee-	.
8c-L	4c-	12r	12r	.
.	.	6a	12anL 12dd	.
8G-J	.	.	.	.
.	.	.	12e-J 12ee-	.
8B-L	4B-	12r	12r	.
.	.	6b-	12b-L 12dd	.
8G-J	.	.	.	.
.	.	.	12e-J 12ee-	.
*v	*v	*	*	*
=292	=292	=292	=292
8.EE-L 8.E-	12r	12r	f
.	6e-	12e-L 12f	.
.	.	12G-J 12g-	.
16BBB-Jk 16BB-	.	.	.
4BBB- 4BB-	12r	12r	.
.	6b-	12b-L 12ff	.
.	.	12g-J 12ee- 12gg-	.
4G- 4e-	12r	12r	.
.	6b-	12b-L 12ddn	.
.	.	12e-J 12ee-	.
=293	=293	=293	=293
*^	*	*	*
8B-L	4B-	12r	12r	pp
.	.	6b-	12b-L 12ddn	.
8G-J	.	.	.	.
.	.	.	12e-J 12ee-	.
8c-L	4c-	12r	12r	.
.	.	6a	12anL 12dd	.
8G-J	.	.	.	.
.	.	.	12e-J 12ee-	.
8B-L	4B-	12r	12r	.
.	.	6b-	12b-L 12dd	.
8G-J	.	.	.	.
.	.	.	12e-J 12ee-	.
=294	=294	=294	=294	=294
8B-L	4B-	12r	12r	ppp
.	.	6b-	12b-L 12ddn	.
8G-J	.	.	.	.
.	.	.	12e-J 12ee-	.
8c-L	4c-	12r	12r	.
.	.	6a	12anL 12dd	.
8G-J	.	.	.	.
.	.	.	12e-J 12ee-	.
8B-L	4B-	12r	12r	.
.	.	6b-	12b-L 12dd	.
8G-J	.	.	.	.
.	.	.	12e-J 12ee-	.
!!LO:LB:g=original
=295	=295	=295	=295	=295
4EE- 4E-	8E-L	12r	12r	ff
.	.	6B-	12B-L 12f	.
.	8BB-J	.	.	.
.	.	.	12G-J 12e- 12g-	.
4GG- 4G-	8G-L	12r	12r	.
.	.	6e-	12e-L 12an	.
.	8E-J	.	.	.
.	.	.	12B-J 12g- 12b-	.
4BB- 4B-	8B-L	12r	12r	.
.	.	6g-	12g-L 12ddn	.
.	8G-J	.	.	.
.	.	.	12e-J 12b- 12ee-	.
=296	=296	=296	=296	=296
4E- 4e-	8e-L	12r	12r	.
.	.	6b-	12b-L 12ff	.
.	8B-J	.	.	.
.	.	.	12g-J 12ee- 12gg-	.
*	*clefG2	*	*	*
4G- 4g-	8g-L	12r	12r	.
.	.	6ee-	12ee-L 12aan	.
.	8e-J	.	.	.
.	.	.	12b-J 12gg- 12bb-	.
4B- 4b-	8b-L	12r	12r	.
*	*	*8va	*	*
.	.	6gg-	12gg-L 12dddn	.
.	8g-J	.	.	.
.	.	.	12ee-J 12bb- 12eee-	.
=297	=297	=297	=297	=297
4e- 4ee-	8ee-L	12ryy	12raa	.
.	.	6aa	12aanL 12fff	.
.	8cc-J	.	.	.
.	.	.	12gg-J 12eee- 12ggg-	.
4c- 4cc-	8cc-L	12ryy	12raa	.
.	.	6gg-	12gg-L 12dddn	.
.	8g-J	.	.	.
.	.	.	12ee-J 12aa 12eee-	.
4G- 4g-	8g-L	12ryy	12raa	.
.	.	6ee-	12ee-L 12aa-X	.
.	8e-J	.	.	.
.	.	.	12anJ 12gg- 12aan	.
=298	=298	=298	=298	=298
8.B-L 8.b-	8b-L	12ryy	12raa	.
.	.	6gg-	12gg-L 12dddn	.
.	8g-J	.	.	.
.	.	.	12ee-J 12bb- 12eee-	.
*	*	*X8va	*	*
16G-Jk 16g-	.	.	.	.
4G- 4g-	8g-L	12r	12r	.
.	.	6ee-	12ee-L 12aan	.
.	8e-J	.	.	.
.	.	.	12b-J 12gg- 12bb-	.
*	*clefF4	*	*	*
4E- 4e-	8e-L	12r	12r	.
.	.	6b-	12b-L 12ff	.
.	8B-J	.	.	.
.	.	.	12g-J 12ee- 12gg-	.
!!LO:LB:g=original
=299	=299	=299	=299	=299
4E- 4e-	8e-L	12r	12r	.
.	.	6a	12anL 12ff	.
.	8c-J	.	.	.
.	.	.	12g-J 12ee- 12gg-	.
4C- 4c-	8c-L	12r	12r	.
.	.	6g-	12g-L 12ddn	.
.	8G-J	.	.	.
.	.	.	12e-J 12an 12ee-	.
4GG- 4G-	8G-L	12r	12r	.
.	.	6e-	12e-L 12a-X	.
.	8E-J	.	.	.
.	.	.	12AnJ 12g- 12an	.
=300	=300	=300	=300	=300
8.BB-L 8.B-	8B-L	12r	12r	.
.	.	6g-	12g-L 12ddn	.
.	8G-J	.	.	.
.	.	.	12e-J 12b- 12ee-	.
16GG-Jk 16G-	.	.	.	.
4GG- 4G-	8G-L	12r	12r	.
.	.	6e-	12e-L 12an	.
.	8E-J	.	.	.
.	.	.	12B-J 12g- 12b-	.
4EE- 4E-	8E-L	12r	12r	.
.	.	6B-	12B-L 12f	.
.	8BB-J	.	.	.
.	.	.	12G-J 12e- 12g-	.
=301	=301	=301	=301	=301
8.EE-L 8.E-	8E-L	12r	12r	.
.	.	6A	12AnL 12f	.
.	8C-J	.	.	.
.	.	.	12G-J 12e- 12g-	.
16CC-Jk 16C-	.	.	.	.
2CC- 2C-	8C-L	12r	12r	.
.	.	6G-	12G-L 12dn	.
.	8GG-J	.	.	.
.	.	.	12E-J 12An 12e-	.
.	8C-L	12r	12r	.
.	.	6G-	12G-L 12d	.
.	8GG-J	.	.	.
.	.	.	12E-J 12A 12e-	.
=302	=302	=302	=302	=302
8.EE-L 8.E-	8E-L	12r	12r	.
.	.	6A	12AnL 12f	.
.	8BB-J	.	.	.
.	.	.	12G-J 12e- 12g-	.
16BBB-Jk 16BB-	.	.	.	.
*	*	*	*clefF4	*
2BBB- 2BB-	8BB-L	12r	12r	.
.	.	6G-	12G-L 12dn	.
.	8GG-J	.	.	.
.	.	.	12E-J 12B- 12e-	.
.	8BB-L	12r	12r	.
.	.	6G-	12G-L 12d	.
.	8GG-J	.	.	.
.	.	.	12E-J 12B- 12e-	.
!!LO:LB:g=original
=303	=303	=303	=303	=303
8.EE-L 8.E-	8E-L	12r	12r	.
.	.	6c-	12c-L 12f	.
.	8AA-J	.	.	.
.	.	.	12G-J 12e- 12g-	.
16AAA-Jk 16AA-	.	.	.	.
2AAA- 2AA-	8AA-L	12r	12r	.
.	.	6G-	12G-L 12dn	.
.	8EE-J	.	.	.
.	.	.	12E-J 12c- 12e-	.
.	8AA-L	12r	12r	.
.	.	6G-	12G-L 12d	.
.	8EE-J	.	.	.
.	.	.	12E-J 12c- 12e-	.
*	*	*	*clefG2	*
=304	=304	=304	=304	=304
4GGG- 4GG-	8GG-L	12r	12r	.
.	.	6B-	12B-L 12dn	.
.	8EE-J	.	.	.
.	.	.	12E-J 12e-	.
!	!	!	!	!LO:HP:b=2
4FFF 4FF	8FFL	12r	12r	<
.	.	6A	12AnL 12d	(
.	8EE-J	.	.	(
.	.	.	12E-J 12e-	(
4FFF-X 4FF-	8FF-XL	12r	12r	(
.	.	6A-	12A-XL 12d	(
.	8EE-J	.	.	(
.	.	.	12E-J 12e-	(
*v	*v	*	*	*
=305	=305	=305	=305
4EEE- 4EE-	12r	12r	(
.	6G-	12G-L 12dn	(
.	.	12E-J 12B- 12e-	(
4BBB- 4BB-	12r	12r	(
.	6B-	12B-L 12f	(
.	.	12G-J 12e- 12g-	(
4EE- 4E-	12r	12r	(
.	6e-	12e-L 12an	(
.	.	12B-J 12g- 12b-	(
=306	=306	=306	=306
4BB- 4B-	12r	12r	(
.	6g-	12g-L 12ddn	(
.	.	12e-J 12b- 12ee-	(
4G- 4g-	12r	12r	(
.	6b-	12b-L 12ff	(
.	.	12g-J 12ee- 12gg-	(
4F 4f	12r	12r	(
.	6ee-	12ee-L 12aan	(
.	.	12b-J 12ee- 12gg- 12bb-	[
*	*v	*v	*
=307	=307	=307
2.E- 2.B- 2.g-	2.ee- 2.bb- 2.eee-	fff
=308	=308	=308
2.EE- 2.BB- 2.E-	2.G- 2.B- 2.e- 2.g-	pp
=309	=309	=309
2.EE- 2.BB- 2.E-	2.G- 2.B- 2.e- 2.g-	ppp
==	==	==
*-	*-	*-
!!!system-decoration: {(*)}
!!!filter: flipper -a
!!!RDF**kern: < = below
!!!RDF**kern: > = above
!!!RDF**dynam: > = dim.
!!!ENC: Bryan Jacob Bell
!!!END: November 2021 to April 2022
!!!PED: M.P. Belaieff
